!!!!SEGMENT: pl-cz--iii-117_daubeck-jozef--aria.krn
!!!cenid: 17xx:220
!!!COM: Daubeck, Józef
!!!COM-rismID: pe30086110
!!!CDT: <1790->1810
!!!CNT:
!!!OTL: Aria
!!!PDT:
!!!AGN:
!!!SMS-siglum: PL-CZ
!!!SMS-shelfmark: III-117
!!!SMS-shelfwork: W
!!!NIFC-rismSourceID: 300000120
!!!NIFC-rismChildID: 300000120
!!!NIFC-islandoraID: pl-cz:34629
!!!URL-pdf-islandora: https://repozytorium.nifc.pl/islandora/object/pl-cz%3A34629/datastream/PDF/view
!!!URL-scan: https://polish.musicsources.pl/pl/lokalizacje/galeria/rekopisy/6834/1 @EN{Scan on Polish Music Sources Website} @PL{Skany w portalu Dziedzictwo Muzyki Polskiej w otwartym dostępie}
!!!IIIF:
!!!ONB-nifc:
!!!AIN: 1 bass 2 empty 2 oboe 2 violn 1 vox
!!!key:
**kern	**dynam	**kern	**text	**kern	**dynam	**kern	**dynam	**kern	**dynam	**kern	**dynam	**kern	**dynam	**kern	**dynam
*part8	*	*part7	*part7	*part6	*	*part5	*	*part4	*	*part3	*	*part2	*	*part1	*
*staff8	*	*staff7	*staff7	*staff6	*	*staff5	*	*staff4	*	*staff3	*	*staff2	*	*staff1	*
*Ibass	*	*Ivox	*	*Ivioln	*	*Ivioln	*	*Iempty	*	*Iempty	*	*Ioboe	*	*Ioboe	*
*I"Basso	*	*I"Canto Solo.	*	*I"Violino II	*	*I"Violino Primo.	*	*I"Cornu 2do in G	*	*I"Cornu 1.o   in G	*	*I"Oboe 2.da	*	*I"Oboe Prima	*
*I'B	*	*I'C	*	*I'Vln. II	*	*I'Vln. I	*	*I'Cor II	*	*I'Cor I	*	*I'Ob II	*	*I'Ob I	*
*group5	*	*group4	*	*group3	*	*group3	*	*group2	*	*group2	*	*group1	*	*group1	*
*clefF4	*	*clefC1	*	*clefG2	*	*clefG2	*	*clefG2	*	*clefG2	*	*clefG2	*	*clefG2	*
*	*	*	*	*	*	*	*	*ITrd3c5	*	*ITrd3c5	*	*	*	*	*
*k[f#]	*	*k[f#]	*	*k[f#]	*	*k[f#]	*	*k[f#]	*	*k[f#]	*	*k[f#]	*	*k[f#]	*
*G:	*	*G:	*	*G:	*	*G:	*	*	*	*	*	*G:	*	*G:	*
*M3/4	*	*M3/4	*	*M3/4	*	*M3/4	*	*M3/4	*	*M3/4	*	*M3/4	*	*M3/4	*
=1	=1	=1	=1	=1	=1	=1	=1	=1	=1	=1	=1	=1	=1	=1	=1
!LO:TX:a:B:t=Andante	!	!LO:TX:a:t=Aria	!	!LO:TX:a:B:t=Andante	!	!LO:TX:a:B:t=Andante	!	!LO:TX:a:B:t=Andante	!	!LO:TX:a:B:t=Andante	!	!LO:TX:a:B:t=Andante	!	!LO:TX:a:B:t=Andante	!
!	!	!LO:TX:a:t=29 Pausis	!	!	!	!	!	!	!	!	!	!	!	!	!
!	!	!LO:N:vis=00	!	!	!	!	!	!	!	!	!	!	!	!	!
4ryy	.	0.r	.	4ryy	.	4ryy	.	4ryy	.	4ryy	.	4ryy	.	4ryy	.
4ryy	.	.	.	4ryy	.	4ryy	.	4ryy	.	4ryy	.	4ryy	.	4ryy	.
!	!	!	!	!	!LO:DY:a	!	!	!	!	!	!	!	!	!	!
!	!	!	!	!	!LO:DY:t=po	!	!LO:DY:t=po	!	!	!	!	!	!LO:DY:t=po	!	!LO:DY:t=po
4r	.	.	.	8.b\L	p	8.dd\L	p	4r	.	4r	.	8.b/L	p	8.dd\L	p
.	.	.	.	16b\Jk	.	16dd\Jk	.	.	.	.	.	16b/Jk	.	16dd\Jk	.
=2	=2	=2	=2	=2	=2	=2	=2	=2	=2	=2	=2	=2	=2	=2	=2
!	!LO:DY:t=po	!	!	!	!	!	!	!	!LO:DY:t=po	!	!	!	!	!	!
4G\	p	.	.	4b/	.	4dd\	.	4b\	p	4dd\	.	4b/	.	4dd\	.
4r	.	.	.	4a/	.	4cc\	.	4a\	.	4cc\	.	4a/	.	4cc\	.
4r	.	.	.	4g/	.	4b\	.	4g\	.	4b\	.	4g/	.	4b\	.
=3	=3	=3	=3	=3	=3	=3	=3	=3	=3	=3	=3	=3	=3	=3	=3
4G\	.	.	.	4ee\	.	4gg\	.	4b\	.	4gg\	.	4ee\	.	4gg\	.
4r	.	.	.	4dd\	.	4ff#\	.	4b\	.	4ff#\	.	4dd\	.	4ff#\	.
4r	.	.	.	4cc\	.	4ee\	.	4cc\	.	4ee\	.	4cc\	.	4ee\	.
=4	=4	=4	=4	=4	=4	=4	=4	=4	=4	=4	=4	=4	=4	=4	=4
*	*	*	*	*2\right	*	*2\right	*	*	*	*	*	*2\right	*	*2\right	*
4F#\	.	.	.	2cc\	.	2ee\	.	4cc\	.	4ee\	.	2cc\	.	2ee\	.
4F#\	.	.	.	.	.	.	.	4cc\	.	4ee\	.	.	.	.	.
4F#\	.	.	.	8b\L	.	8dd\L	.	8b\L	.	8dd\L	.	8b\L	.	8dd\L	.
.	.	.	.	8cc\J	.	8ee\J	.	8cc\J	.	8ee\J	.	8cc\J	.	8ee\J	.
=5	=5	=5	=5	=5	=5	=5	=5	=5	=5	=5	=5	=5	=5	=5	=5
!	!	!LO:N:vis=00	!	!	!	!	!	!	!	!	!	!	!	!	!
4G\	.	0.r	.	4b/	.	4dd\	.	4b\	.	4dd\	.	4b\	.	4dd\	.
4D\	.	.	.	4aT/	.	4cc\	.	4a\	.	4cc\	.	4a/	.	4cc\	.
4G\	.	.	.	4g/	.	4b\	.	4g\	.	4b\	.	4g/	.	4b\	.
=6	=6	=6	=6	=6	=6	=6	=6	=6	=6	=6	=6	=6	=6	=6	=6
*2\right	*	*	*	*	*	*	*	*	*	*	*	*tremolo	*	*tremolo	*
*tremolo	*	*	*	*	*	*	*	*	*	*	*	*	*	*	*
!	!LO:DY:t=for	!	!	!	!LO:DY:a	!	!	!	!	!	!	!	!LO:DY:t=f.	!	!
!	!LO:DY:a	!	!	!	!LO:DY:t=for	!	!LO:DY:t=for	!	!LO:DY:t=for	!	!	!	!	!	!LO:DY:t=for
8D\L	.	.	.	8a/L	f	4cc\	f	4a\	f	4cc\	.	8cc\L	f	8ff#\L	f
8D\	.	.	.	8a/	.	.	.	.	.	.	.	8cc\	.	8ff#\	.
8D\	.	.	.	8a/	.	16aa\LL	.	4a\	.	4cc\	.	8cc\	.	8ff#\	.
.	.	.	.	.	.	16gg\	.	.	.	.	.	.	.	.	.
8D\	.	.	.	8a/	.	16ff#X\	.	.	.	.	.	8cc\	.	8ff#\	.
.	.	.	.	.	.	16ee\JJ	.	.	.	.	.	.	.	.	.
8D\	.	.	.	8a/	.	16dd\LL	.	4a\	.	4cc\	.	8cc\	.	8ff#\	.
.	.	.	.	.	.	16cc\	.	.	.	.	.	.	.	.	.
8D\J	.	.	.	8a/J	.	16b\	.	.	.	.	.	8cc\J	.	8ff#\J	.
.	.	.	.	.	.	16a\JJ	.	.	.	.	.	.	.	.	.
*	*	*	*	*	*	*	*	*	*	*	*	*Xtremolo	*	*Xtremolo	*
=7	=7	=7	=7	=7	=7	=7	=7	=7	=7	=7	=7	=7	=7	=7	=7
8G\L	.	.	.	8g/L	.	8.b\L	.	4g\	.	4b\	.	8b/L	.	8gg\L	.
8G\	.	.	.	8g/J	.	.	.	.	.	.	.	8b/J	.	8gg\J	.
.	.	.	.	.	.	16b\Jk	.	.	.	.	.	.	.	.	.
8G\	.	.	.	16g/LL	.	16b\LL	.	4g\	.	4b\	.	8b/L	.	8gg\L	.
.	.	.	.	16b/	.	16gg\	.	.	.	.	.	.	.	.	.
8G\	.	.	.	16a/	.	16ff#X\	.	.	.	.	.	16a/L	.	16ff#\L	.
.	.	.	.	16b/JJ	.	16gg\JJ	.	.	.	.	.	16b/JJ	.	16gg\JJ	.
8G\	.	.	.	16cc/LL	.	16aa\LL	.	4g\	.	4b\	.	16cc/LL	.	16aa\LL	.
.	.	.	.	16b/	.	16gg\	.	.	.	.	.	16b/	.	16gg\	.
8G\J	.	.	.	16a/	.	16ff#X\	.	.	.	.	.	16a/	.	16ff#\	.
.	.	.	.	16b/JJ	.	16gg\JJ	.	.	.	.	.	16b/JJ	.	16gg\JJ	.
=8	=8	=8	=8	=8	=8	=8	=8	=8	=8	=8	=8	=8	=8	=8	=8
*	*	*	*	*tremolo	*	*	*	*	*	*	*	*tremolo	*	*tremolo	*
!	!	!	!	!LO:LB:g=original	!	!LO:LB:g=original	!	!	!	!	!	!LO:LB:g=original	!	!LO:LB:g=original	!
8D\L	.	.	.	8a/L	.	8cc\L	.	4a\	.	4cc\	.	8cc\L	.	8ff#\L	.
8D\	.	.	.	8a/	.	8cc\J	.	.	.	.	.	8cc\	.	8ff#\	.
8D\	.	.	.	8a/	.	16aa\LL	.	4a\	.	4cc\	.	8cc\	.	8ff#\	.
.	.	.	.	.	.	16gg\	.	.	.	.	.	.	.	.	.
8D\	.	.	.	8a/	.	16ff#\	.	.	.	.	.	8cc\	.	8ff#\	.
.	.	.	.	.	.	16ee\JJ	.	.	.	.	.	.	.	.	.
8D\	.	.	.	8a/	.	16dd\LL	.	4a\	.	4cc\	.	8cc\	.	8ff#\	.
.	.	.	.	.	.	16cc\	.	.	.	.	.	.	.	.	.
8D\J	.	.	.	8a/J	.	16b\	.	.	.	.	.	8cc\J	.	8ff#\J	.
.	.	.	.	.	.	16a\JJ	.	.	.	.	.	.	.	.	.
*Xtremolo	*	*	*	*Xtremolo	*	*	*	*	*	*	*	*Xtremolo	*	*Xtremolo	*
=9	=9	=9	=9	=9	=9	=9	=9	=9	=9	=9	=9	=9	=9	=9	=9
!	!	!LO:N:vis=00	!	!	!	!	!	!LO:LB:g=original	!	!LO:LB:g=original	!	!	!	!	!
4G\	.	0.r	.	8g/L	.	8b\L	.	4g\	.	4b\	.	8b/L	.	8gg\L	.
.	.	.	.	8g/J	.	8b\J	.	.	.	.	.	8b/J	.	8gg\J	.
4B\	.	.	.	16g/LL	.	16b\LL	.	4g\	.	4b\	.	8b/L	.	8gg\L	.
.	.	.	.	16b/	.	16gg\	.	.	.	.	.	.	.	.	.
.	.	.	.	16a/	.	16ff#\	.	.	.	.	.	16a/L	.	16ff#\L	.
.	.	.	.	16b/JJ	.	16gg\JJ	.	.	.	.	.	16b/JJ	.	16gg\JJ	.
4G\	.	.	.	16cc/LL	.	16aa\LL	.	4g\	.	4b\	.	16cc/LL	.	16aa\LL	.
.	.	.	.	16b/	.	16gg\	.	.	.	.	.	16b/	.	16gg\	.
.	.	.	.	16a/	.	16ff#\	.	.	.	.	.	16a/	.	16ff#\	.
.	.	.	.	16b/JJ	.	16gg\JJ	.	.	.	.	.	16b/JJ	.	16gg\JJ	.
=10	=10	=10	=10	=10	=10	=10	=10	=10	=10	=10	=10	=10	=10	=10	=10
!	!	!	!	!	!	!	!	!	!	!	!	!LO:LB:g=original	!	!	!
4G\	.	.	.	4b/	.	4dd\	.	2.r	.	2.r	.	2.r	.	2.r	.
4D\	.	.	.	4a/	.	4cc\	.	.	.	.	.	.	.	.	.
4G\	.	.	.	8g/L	.	8b\L	.	.	.	.	.	.	.	.	.
.	.	.	.	8b/J	.	8gg\J	.	.	.	.	.	.	.	.	.
=11	=11	=11	=11	=11	=11	=11	=11	=11	=11	=11	=11	=11	=11	=11	=11
!	!	!	!	!	!	!LO:TX:a:t=1	!	!	!	!	!	!LO:TX:a:t=Solo	!	!LO:TX:a:t=Solo	!
4G\	.	.	.	2.r	.	2.r	.	8b\L	.	8dd\L	.	8b\L	.	8dd\L	.
.	.	.	.	.	.	.	.	8cc\	.	8ee\	.	8cc\	.	8ee\	.
4D\	.	.	.	.	.	.	.	8a\	.	8cc\	.	8a\	.	8cc\	.
.	.	.	.	.	.	.	.	8b\	.	8dd\	.	8b\	.	8dd\	.
4G\	.	.	.	.	.	.	.	8g\	.	8b\	.	8g\	.	8b\	.
.	.	.	.	.	.	.	.	8g\J	.	8b\J	.	8b\J	.	8gg\J	.
=12	=12	=12	=12	=12	=12	=12	=12	=12	=12	=12	=12	=12	=12	=12	=12
!LO:LB:g=original	!	!	!	!	!	!	!	!	!	!	!	!	!	!	!
4G\	.	.	.	4b/	.	4dd\	.	2.r	.	2.r	.	2.r	.	2.r	.
4D\	.	.	.	4a/	.	4cc\	.	.	.	.	.	.	.	.	.
4G\	.	.	.	8g/L	.	8b\L	.	.	.	.	.	.	.	.	.
.	.	.	.	8b/J	.	8gg\J	.	.	.	.	.	.	.	.	.
=13	=13	=13	=13	=13	=13	=13	=13	=13	=13	=13	=13	=13	=13	=13	=13
!	!	!LO:N:vis=00	!	!	!	!	!	!	!	!	!	!	!	!	!
4G\	.	0.r	.	2.r	.	2.r	.	8b\L	.	8dd\L	.	8b\L	.	8dd\L	.
.	.	.	.	.	.	.	.	8cc\	.	8ee\	.	8cc\	.	8ee\	.
4D\	.	.	.	.	.	.	.	8a\	.	8cc\	.	8a\	.	8cc\	.
.	.	.	.	.	.	.	.	8b\	.	8dd\	.	8b\	.	8dd\	.
4G\	.	.	.	.	.	.	.	8g\	.	8b\	.	8g\	.	8b\	.
.	.	.	.	.	.	.	.	8g\J	.	8b\J	.	8b\J	.	8gg\J	.
=14	=14	=14	=14	=14	=14	=14	=14	=14	=14	=14	=14	=14	=14	=14	=14
*tremolo	*	*	*	*	*	*	*	*	*	*	*	*	*	*	*
!	!	!	!	!	!LO:DY:t=for	!	!LO:DY:t=for	!	!	!	!	!	!	!	!
8c\L	.	.	.	8cc\L	f	8ee\L	f	2.r	.	2.r	.	8cc\L	.	4ee\	.
8c\	.	.	.	8cc\J	.	8ee\	.	.	.	.	.	8cc\J	.	.	.
*	*	*	*	*	*	*	*	*	*	*	*	*tremolo	*	*	*
!	!	!	!	!	!	!	!	!	!	!	!	!	!	!	!
8c\	.	.	.	8ee\L	.	8ccc\	.	.	.	.	.	8ee\L	.	8ccc\L	.
8c\	.	.	.	8cc\	.	8ee\	.	.	.	.	.	8ee\	.	8ee\	.
8c\	.	.	.	8ee\	.	8ccc\	.	.	.	.	.	8ee\	.	8ccc\	.
8c\J	.	.	.	8cc\J	.	8ee\J	.	.	.	.	.	8ee\J	.	8ee\J	.
*Xtremolo	*	*	*	*	*	*	*	*	*	*	*	*Xtremolo	*	*	*
=15	=15	=15	=15	=15	=15	=15	=15	=15	=15	=15	=15	=15	=15	=15	=15
!LO:TX:a:t=problem: mixed beam	!	!	!	!	!	!LO:LB:g=original	!	!	!	!	!	!LO:LB:g=original	!	!	!
8d\L	.	.	.	8a/L	.	8ff#\L	.	4d/	.	4a\	.	4cc\	.	4ff#\	.
8d\	.	.	.	8a/J	.	8ff#\J	.	.	.	.	.	.	.	.	.
8D/	.	.	.	16a/LL	.	16ff#\LL	.	4d/	.	4a\	.	4cc\	.	4ff#\	.
.	.	.	.	16cc/	.	16aa\	.	.	.	.	.	.	.	.	.
8D/J	.	.	.	16b/	.	16gg\	.	.	.	.	.	.	.	.	.
.	.	.	.	16a/JJ	.	16ff#\JJ	.	.	.	.	.	.	.	.	.
8G\L	.	.	.	4b/	.	4gg\	.	4g\	.	4b\	.	4b\	.	4gg\	.
8G\J	.	.	.	.	.	.	.	.	.	.	.	.	.	.	.
=16	=16	=16	=16	=16	=16	=16	=16	=16	=16	=16	=16	=16	=16	=16	=16
!LO:TX:a:t=Fag:	!	!	!	!	!	!	!	!	!	!	!	!	!	!LO:LB:g=original	!
8E\L	.	.	.	2.r	.	2.r	.	2.r	.	2.r	.	8cc\L	.	16ee\LL	.
.	.	.	.	.	.	.	.	.	.	.	.	.	.	16cc\	.
8C\	.	.	.	.	.	.	.	.	.	.	.	8ee\	.	16dd\	.
.	.	.	.	.	.	.	.	.	.	.	.	.	.	16ee\JJ	.
8E\	.	.	.	.	.	.	.	.	.	.	.	8ee\	.	16ffn\LL	.
.	.	.	.	.	.	.	.	.	.	.	.	.	.	16gg\	.
8C\	.	.	.	.	.	.	.	.	.	.	.	8ee\	.	16aa\	.
.	.	.	.	.	.	.	.	.	.	.	.	.	.	16bb\JJ	.
8E\	.	.	.	.	.	.	.	.	.	.	.	8ee\	.	8ccc\L	.
8C\J	.	.	.	.	.	.	.	.	.	.	.	8ee\J	.	8ccc\J	.
=17	=17	=17	=17	=17	=17	=17	=17	=17	=17	=17	=17	=17	=17	=17	=17
!	!	!LO:N:vis=00	!	!	!LO:DY:t=pianis	!	!	!	!	!	!	!	!	!	!
4D\	.	0.r	.	8a/L	pp	8ff#\L	.	8a\L	.	8cc\L	.	8aa\L	.	8ccc\L	.
.	.	.	.	8a/J	.	8ff#\J	.	8d\	.	8a\	.	8ff#\	.	8aa\	.
4F#\	.	.	.	16a/LL	.	16ff#\LL	.	8a\	.	8cc\	.	8aa\	.	8ccc\	.
.	.	.	.	16cc/	.	16aa\	.	.	.	.	.	.	.	.	.
.	.	.	.	16b/	.	16gg\	.	8d\J	.	8a\J	.	8ff#\J	.	8aa\J	.
.	.	.	.	16a/JJ	.	16ff#\JJ	.	.	.	.	.	.	.	.	.
4G\	.	.	.	4b/	.	4gg\	.	4g\	.	4b\	.	4gg\	.	4bb\	.
=18	=18	=18	=18	=18	=18	=18	=18	=18	=18	=18	=18	=18	=18	=18	=18
!	!	!	!	!LO:N:vis=00	!	!LO:N:vis=00	!	!LO:LB:g=original	!	!LO:LB:g=original	!	!	!	!	!
4G\	.	.	.	0.r	.	0.r	.	4b\	.	4gg\	.	4b\	.	4gg\	.
4G\	.	.	.	.	.	.	.	4b\	.	4ff#\	.	4dd\	.	4ff#\	.
4G\	.	.	.	.	.	.	.	4cc\	.	4ee\	.	4cc\	.	4ee\	.
=19	=19	=19	=19	=19	=19	=19	=19	=19	=19	=19	=19	=19	=19	=19	=19
4.G\	.	.	.	.	.	.	.	4.b\	.	4.dd\	.	4.b/	.	4.dd\	.
8D\	.	.	.	.	.	.	.	8a\	.	8cc\	.	8a/	.	8cc\	.
4G\	.	.	.	.	.	.	.	4g\	.	4b\	.	4g/	.	4b\	.
=20	=20	=20	=20	=20	=20	=20	=20	=20	=20	=20	=20	=20	=20	=20	=20
8C\L	.	.	.	.	.	.	.	4a\	.	4cc\	.	16cc\LL	.	16ee\LL	.
.	.	.	.	.	.	.	.	.	.	.	.	16b\	.	16dd\	.
8C\	.	.	.	.	.	.	.	.	.	.	.	16cc\	.	16ee\	.
.	.	.	.	.	.	.	.	.	.	.	.	16ee\JJ	.	16gg\JJ	.
8D\	.	.	.	.	.	.	.	4d/	.	4a\	.	16a/LL	.	16ff#\LL	.
.	.	.	.	.	.	.	.	.	.	.	.	16g/	.	16ee\	.
8D\	.	.	.	.	.	.	.	.	.	.	.	16a/	.	16ff#\	.
.	.	.	.	.	.	.	.	.	.	.	.	16cc/JJ	.	16aa\JJ	.
8G\	.	.	.	.	.	.	.	8g\L	.	8b\L	.	8b\L	.	8gg\L	.
8G\J	.	.	.	.	.	.	.	8b\J	.	8dd\J	.	16gg\L	.	16bb\L	.
.	.	.	.	.	.	.	.	.	.	.	.	16bb\JJ	.	16ddd\JJ	.
=21	=21	=21	=21	=21	=21	=21	=21	=21	=21	=21	=21	=21	=21	=21	=21
!	!	!LO:N:vis=00	!	!	!	!	!	!	!	!	!	!LO:LB:g=original	!	!	!
8.G\L	.	0.r	.	.	.	.	.	8.b\L	.	8.dd\L	.	8.bb\L	.	8.ddd\L	.
16c\Jk	.	.	.	.	.	.	.	16a\Jk	.	16cc\Jk	.	16aa\Jk	.	16ccc\Jk	.
!LO:TX:a:t=problem: mixed beam	!	!	!	!	!	!	!	!	!	!	!	!	!	!	!
!LO:LB:g=original	!	!	!	!	!	!	!	!	!	!	!	!	!	!	!
8d\L	.	.	.	.	.	.	.	4g\	.	4b\	.	4gg\	.	4bb\	.
8d\	.	.	.	.	.	.	.	.	.	.	.	.	.	.	.
8D/	.	.	.	.	.	.	.	4d/	.	4a\	.	4ff#\	.	4aa\	.
8D/J	.	.	.	.	.	.	.	.	.	.	.	.	.	.	.
=22	=22	=22	=22	=22	=22	=22	=22	=22	=22	=22	=22	=22	=22	=22	=22
!LO:TX:a:t=Tutti	!	!	!	!	!LO:DY:t=for	!	!	!	!	!	!	!	!	!LO:LB:g=original	!
!	!	!	!	!	!LO:DY:a	!	!LO:DY:t=for	!	!	!	!	!LO:N:vis=00	!	!LO:N:vis=00	!
4G\	.	.	.	8b\L	f	8gg\L	f	4g\	.	4b\	.	0.r	.	0.r	.
.	.	.	.	8b\J	.	8gg\J	.	.	.	.	.	.	.	.	.
4G\	.	.	.	16b\LL	.	16gg\LL	.	4b\	.	4dd\	.	.	.	.	.
.	.	.	.	16dd\	.	16bb\	.	.	.	.	.	.	.	.	.
.	.	.	.	16cc\	.	16aa\	.	.	.	.	.	.	.	.	.
.	.	.	.	16b\JJ	.	16gg\JJ	.	.	.	.	.	.	.	.	.
4G\	.	.	.	16a/LL	.	16ff#\LL	.	4b\	.	4dd\	.	.	.	.	.
.	.	.	.	16b/	.	16gg\	.	.	.	.	.	.	.	.	.
.	.	.	.	16a/	.	16ff#\	.	.	.	.	.	.	.	.	.
.	.	.	.	16b/JJ	.	16gg\JJ	.	.	.	.	.	.	.	.	.
=23	=23	=23	=23	=23	=23	=23	=23	=23	=23	=23	=23	=23	=23	=23	=23
!	!	!	!	!	!	!	!	!LO:N:vis=0	!	!LO:TX:a:t=3	!	!	!	!	!
8c\L	.	.	.	8cc\L	.	8ee\L	.	1.r	.	2.r	.	.	.	.	.
8c\	.	.	.	8cc\J	.	8ee\J	.	.	.	.	.	.	.	.	.
8c\	.	.	.	16ee\LL	.	16ee\LL	.	.	.	.	.	.	.	.	.
.	.	.	.	16gg\	.	16gg\	.	.	.	.	.	.	.	.	.
8c\	.	.	.	16ff#\	.	16ff#\	.	.	.	.	.	.	.	.	.
.	.	.	.	16ee\JJ	.	16ee\JJ	.	.	.	.	.	.	.	.	.
8B\	.	.	.	16dd\LL	.	16dd\LL	.	.	.	.	.	.	.	.	.
.	.	.	.	16cc\	.	16cc\	.	.	.	.	.	.	.	.	.
8B\J	.	.	.	16b\	.	16b\	.	.	.	.	.	.	.	.	.
.	.	.	.	16cc\JJ	.	16cc\JJ	.	.	.	.	.	.	.	.	.
=24	=24	=24	=24	=24	=24	=24	=24	=24	=24	=24	=24	=24	=24	=24	=24
!	!	!	!	!	!	!LO:LB:g=original	!	!	!	!	!	!	!	!	!
8D\L	.	.	.	16b\LL	.	16dd\LL	.	.	.	2.r	.	.	.	.	.
.	.	.	.	16b\	.	16dd\	.	.	.	.	.	.	.	.	.
8D\	.	.	.	16cc\	.	16ee\	.	.	.	.	.	.	.	.	.
.	.	.	.	16b\JJ	.	16dd\JJ	.	.	.	.	.	.	.	.	.
8F#\	.	.	.	16cc\LL	.	16ee\LL	.	.	.	.	.	.	.	.	.
.	.	.	.	16cc\	.	16ee\	.	.	.	.	.	.	.	.	.
8D\	.	.	.	16ff#\	.	16ff#\	.	.	.	.	.	.	.	.	.
.	.	.	.	16aa\JJ	.	16aa\JJ	.	.	.	.	.	.	.	.	.
8G\	.	.	.	8gg\L	.	8gg\L	.	.	.	.	.	.	.	.	.
8G\J	.	.	.	16bb\L	.	16bb\L	.	.	.	.	.	.	.	.	.
.	.	.	.	16ddd\JJ	.	16ddd\JJ	.	.	.	.	.	.	.	.	.
=25	=25	=25	=25	=25	=25	=25	=25	=25	=25	=25	=25	=25	=25	=25	=25
!LO:TX:a:t=problem: mixed beam	!	!	!	!8a/	!	!	!	!	!	!	!	!	!	!	!
.	.	.	.	.	.	8qqddd/	.	.	.	.	.	.	.	.	.
!	!	!LO:N:vis=00	!	!	!	!	!	!	!	!	!	!	!	!	!
8G\L	.	0.r	.	16ddd\LL	.	8ccc\L	.	2.r	.	2.r	.	.	.	.	.
.	.	.	.	16ccc\	.	.	.	.	.	.	.	.	.	.	.
8c\	.	.	.	16bb\	.	16bb\L	.	.	.	.	.	.	.	.	.
.	.	.	.	16aa\JJ	.	16aa\JJ	.	.	.	.	.	.	.	.	.
8d\	.	.	.	4d/ 4b 4gg	.	4d/ 4b 4gg	.	.	.	.	.	.	.	.	.
8d\	.	.	.	.	.	.	.	.	.	.	.	.	.	.	.
8D/	.	.	.	4d/ 4a 4ff#	.	4d/ 4a 4ff#	.	.	.	.	.	.	.	.	.
8D/J	.	.	.	.	.	.	.	.	.	.	.	.	.	.	.
=26	=26	=26	=26	=26	=26	=26	=26	=26	=26	=26	=26	=26	=26	=26	=26
4G\	.	.	.	4d/ 4b 4gg	.	4d/ 4b 4gg	.	4r	.	4r	.	4r	.	4r	.
4G\	.	.	.	4r	.	4r	.	8.b\L	.	8.dd\L	.	8.bb\L	.	8.ddd\L	.
.	.	.	.	.	.	.	.	16g\K	.	16b\K	.	16gg\K	.	16bb\Jk	.
4G\	.	.	.	4r	.	4r	.	8.b\	.	8.dd\	.	8.bb\	.	8.ddd\L	.
.	.	.	.	.	.	.	.	16g\Jk	.	16b\Jk	.	16gg\Jk	.	16bb\Jk	.
=27	=27	=27	=27	=27	=27	=27	=27	=27	=27	=27	=27	=27	=27	=27	=27
8.G\L	.	.	.	4r	.	4r	.	8.b\L	.	8.dd\L	.	8.bb\L	.	8.ddd\L	.
16c\Jk	.	.	.	.	.	.	.	16a\Jk	.	16cc\Jk	.	16aa\Jk	.	16ccc\Jk	.
4d\	.	.	.	4r	.	4r	.	4g\	.	4b\	.	4gg\	.	4bb\	.
4D/	.	.	.	4d/ 4a 4ff#	.	4d/ 4a 4ff#	.	4d/	.	4a\	.	4ff#\	.	4aa\	.
=28	=28	=28	=28	=28	=28	=28	=28	=28	=28	=28	=28	=28	=28	=28	=28
!LO:TX:a:t=Fag.	!	!	!	!	!	!	!	!	!	!LO:LB:g=original	!	!LO:TX:a:t=problem:repetycja tt.26-27	!	!LO:TX:a:t=problem:repetycja tt.26-27	!
4G\	.	.	.	4d/ 4b 4gg	.	4d/ 4b 4gg	.	4r	.	4r	.	4ryy	.	4ryy	.
4G\	.	.	.	4r	.	4r	.	8.b\L	.	8.dd\L	.	8.bb\Lyy	.	8.ddd\Lyy	.
.	.	.	.	.	.	.	.	16g\K	.	16b\K	.	16gg\Kyy	.	16bb\Jkyy	.
4G\	.	.	.	4r	.	4r	.	8.b\	.	8.dd\	.	8.bb\yy	.	8.ddd\Lyy	.
.	.	.	.	.	.	.	.	16g\Jk	.	16b\Jk	.	16gg\Jkyy	.	16bb\Jkyy	.
=29	=29	=29	=29	=29	=29	=29	=29	=29	=29	=29	=29	=29	=29	=29	=29
!	!	!	!	!	!	!	!	!LO:LB:g=original	!	!	!	!	!	!	!
8.G\L	.	2.r	.	4r	.	4r	.	8.b\L	.	8.dd\L	.	8.bb\Lyy	.	8.ddd\Lyy	.
16c\Jk	.	.	.	.	.	.	.	16a\Jk	.	16cc\Jk	.	16aa\Jkyy	.	16ccc\Jkyy	.
4d\	.	.	.	4r	.	4r	.	4g\	.	4b\	.	4gg\yy	.	4bb\yy	.
4D/	.	.	.	4d/ 4a 4ff#	.	4d/ 4a 4ff#	.	4d/	.	4a\	.	4ff#\yy	.	4aa\yy	.
=30	=30	=30	=30	=30	=30	=30	=30	=30	=30	=30	=30	=30	=30	=30	=30
!LO:TX:a:t=problem: zbędne powtórzenie t.28 i 29	!	!LO:TX:a:t=problem:brakuje 3 taktów	!	!LO:TX:a:t=problem:brakuje 2 taktów	!	!	!	!LO:TX:a:t=problem:brakuje 2 taktów	!	!LO:TX:a:t=problem:brakuje 2 taktów	!	!	!	!	!
!LO:LB:g=original	!	!	!	!	!	!	!	!	!	!	!	!	!	!	!
4G\	.	2.ryy	.	2.ryy	.	2.r	.	2.ryy	.	2.ryy	.	2.r	.	2.r	.
4G\	.	.	.	.	.	.	.	.	.	.	.	.	.	.	.
4G\	.	.	.	.	.	.	.	.	.	.	.	.	.	.	.
=31	=31	=31	=31	=31	=31	=31	=31	=31	=31	=31	=31	=31	=31	=31	=31
8.G\L	.	2.ryy	.	2.ryy	.	2.r	.	2.ryy	.	2.ryy	.	2.r	.	2.r	.
16c\Jk	.	.	.	.	.	.	.	.	.	.	.	.	.	.	.
4d\	.	.	.	.	.	.	.	.	.	.	.	.	.	.	.
4D/	.	.	.	.	.	.	.	.	.	.	.	.	.	.	.
=32	=32	=32	=32	=32	=32	=32	=32	=32	=32	=32	=32	=32	=32	=32	=32
!LO:TX:a:t=Tutti	!	!	!	!	!LO:DY:t=po.	!	!LO:DY:t=po.	!	!	!	!	!	!	!	!
4G\	.	2.ryy	.	4d/ 4b 4gg	p	4d/ 4b 4gg	p	8.g\L	.	8.b\L	.	8.gg\L	.	8.gg\L	.
.	.	.	.	.	.	.	.	16b\K	.	16dd\K	.	16dd\K	.	16bb\K	.
4G\	.	.	.	4d/ 4b 4gg	.	4d/ 4b 4gg	.	8.g\	.	8.b\	.	8.b\	.	8.gg\	.
.	.	.	.	.	.	.	.	16b\K	.	16dd\K	.	16dd\K	.	16bb\K	.
4G\	.	.	.	4d/ 4b 4gg	.	4d/ 4b 4gg	.	8.g\	.	8.b\	.	8.b\	.	8.gg\	.
.	.	.	.	.	.	.	.	16b\Jk	.	16dd\Jk	.	16dd\Jk	.	16bb\Jk	.
=33	=33	=33	=33	=33	=33	=33	=33	=33	=33	=33	=33	=33	=33	=33	=33
4G\	.	4r	.	2d/ 2b 2gg	.	2d/ 2b 2gg	.	4g\	.	4b\	.	4b\	.	4gg\	.
4GG/	.	4r	.	.	.	.	.	4g\	.	4b\	.	4b\	.	4gg\	.
4r	.	8.dd\	Ve-	4r	.	4r	.	4r	.	4r	.	4r	.	4r	.
.	.	16dd\	-ni	.	.	.	.	.	.	.	.	.	.	.	.
=34	=34	=34	=34	=34	=34	=34	=34	=34	=34	=34	=34	=34	=34	=34	=34
!	!	!	!	!.	!LO:DY:a	!	!	!	!	!	!	!	!LO:DY:a	!	!LO:DY:t=pianis
!	!	!	!	!	!LO:DY:t=pianis	!LO:LB:g=original	!LO:DY:t=ppo.	!	!LO:DY:t=piano	!	!LO:DY:t=piano	!	!LO:DY:t=piano	!	!
4G\	.	8dd\L	Spon-	4b/	pp	4dd\	p	4b\	p	4dd\	p	4b/	p	4dd\	p
.	.	16ee\L	.	.	.	.	.	.	.	.	.	.	.	.	.
.	.	16dd\JJ	.	.	.	.	.	.	.	.	.	.	.	.	.
!	!	!LO:TX:a:t=problem:niektóre sylaby oddzielone są podwójnym myślnikiem	!	!	!	!	!	!	!	!	!	!	!	!LO:TX:a:t=t	!
4G\	.	8cc\L	.	4a/	.	4cc\	.	4a\	.	4cc\	.	4a/	.	4cc\	.
.	.	16dd\L	.	.	.	.	.	.	.	.	.	.	.	.	.
.	.	16cc\JJ	.	.	.	.	.	.	.	.	.	.	.	.	.
4G\	.	4b\	-sa	4g/	.	4b\	.	4g\	.	4b\	.	4g/	.	4b\	.
=35	=35	=35	=35	=35	=35	=35	=35	=35	=35	=35	=35	=35	=35	=35	=35
4G\	.	4gg\	Spon-	4ee\	.	4gg\	.	4b\	.	4gg\	.	4ee\	.	4gg\	.
4G\	.	4ff#\	.	4dd\	.	4ff#\	.	4b\	.	4ff#\	.	4dd\	.	4ff#\	.
4G\	.	4ee\	-sa	4cc\	.	4ee\	.	4cc\	.	4ee\	.	4cc\	.	4ee\	.
=36	=36	=36	=36	=36	=36	=36	=36	=36	=36	=36	=36	=36	=36	=36	=36
*	*	*	*	*tremolo	*	*tremolo	*	*	*	*	*	*	*	*	*
!	!	!LO:LB:g=original	!	!	!	!	!	!	!	!	!	!LO:LB:g=original	!	!	!
4c\	.	4ee\	Chri-	8cc\L	.	8ee\L	.	4cc\	.	4ee\	.	4cc\	.	4ee\	.
.	.	.	.	8cc\	.	8ee\	.	.	.	.	.	.	.	.	.
4C/	.	16ee\LL	.	8cc\	.	8ee\	.	4cc\	.	4ee\	.	4cc\	.	4ee\	.
.	.	16ff#\	.	.	.	.	.	.	.	.	.	.	.	.	.
.	.	16gg\	.	8cc\	.	8ee\	.	.	.	.	.	.	.	.	.
.	.	16ff#\JJ	.	.	.	.	.	.	.	.	.	.	.	.	.
4c\	.	16aa\LL	.	8cc\	.	8ee\	.	4cc\	.	4ee\	.	4cc\	.	4ee\	.
.	.	16gg\	.	.	.	.	.	.	.	.	.	.	.	.	.
.	.	16ff#\	.	8cc\J	.	8ee\J	.	.	.	.	.	.	.	.	.
.	.	16ee\JJ	.	.	.	.	.	.	.	.	.	.	.	.	.
*	*	*	*	*Xtremolo	*	*Xtremolo	*	*	*	*	*	*	*	*	*
=37	=37	=37	=37	=37	=37	=37	=37	=37	=37	=37	=37	=37	=37	=37	=37
!	!	!	!	!LO:LB:g=original	!	!	!	!	!	!LO:LB:g=original	!	!	!	!	!
.	.	8qqff#/	.	.	.	.	.	.	.	.	.	8qqdd/	.	8qqff#/	.
4c\	.	8ee\L	.	8cc\L	.	8ee\L	.	4cc\	.	4ee\	.	8cc\L	.	8ee\L	.
.	.	16dd\L	.	8cc\J	.	8ee\J	.	.	.	.	.	16b\L	.	16dd\L	.
.	.	16ee\JJ	.	.	.	.	.	.	.	.	.	16cc\JJ	.	16ee\JJ	.
*	*	*	*	*tremolo	*	*tremolo	*	*	*	*	*	*	*	*	*
!	!	!	!	!	!	!	!	!	!	!	!	!	!	!LO:LB:g=original	!
4G\	.	4dd\	-sti	8b/L	.	8dd\L	.	4b\	.	4dd\	.	4b/	.	4dd\	.
.	.	.	.	8b/	.	8dd\	.	.	.	.	.	.	.	.	.
4G\	.	4dd\	ac-	8b/	.	8dd\	.	4b\	.	4dd\	.	4b/	.	4dd\	.
.	.	.	.	8b/J	.	8dd\J	.	.	.	.	.	.	.	.	.
=38	=38	=38	=38	=38	=38	=38	=38	=38	=38	=38	=38	=38	=38	=38	=38
*tremolo	*	*	*	*	*	*	*	*	*	*	*	*	*	*	*
8D\L	.	16cc\LL	-ci-	8a/L	.	8cc\L	.	4a\	.	4cc\	.	8a/L	.	2.ff#\	.
.	.	16a\	.	.	.	.	.	.	.	.	.	.	.	.	.
8D\	.	16b\	.	8a/	.	8cc\	.	.	.	.	.	8cc/	.	.	.
.	.	16cc\JJ	.	.	.	.	.	.	.	.	.	.	.	.	.
8D\	.	16dd\LL	.	8a/	.	8cc\	.	4r	.	4r	.	8a/	.	.	.
.	.	16ee\	.	.	.	.	.	.	.	.	.	.	.	.	.
8D\	.	16ff#\	.	8a/	.	8cc\	.	.	.	.	.	8cc/	.	.	.
.	.	16gg\JJ	.	.	.	.	.	.	.	.	.	.	.	.	.
8D\	.	8aa\L	.	8a/	.	8cc\	.	4a\	.	4cc\	.	8a/	.	.	.
8D\J	.	8cc\J	.	8a/J	.	8cc\J	.	.	.	.	.	8cc/J	.	.	.
=39	=39	=39	=39	=39	=39	=39	=39	=39	=39	=39	=39	=39	=39	=39	=39
8G\L	.	16b\LL	.	8g/L	.	8b\L	.	4g\	.	4b\	.	8b\L	.	2.gg\	.
.	.	16g\	.	.	.	.	.	.	.	.	.	.	.	.	.
8G\	.	16a\	.	8g/	.	8b\	.	.	.	.	.	8dd\	.	.	.
.	.	16b\JJ	.	.	.	.	.	.	.	.	.	.	.	.	.
8G\	.	16cc\LL	.	8g/	.	8b\	.	4r	.	4r	.	8b\	.	.	.
.	.	16dd\	.	.	.	.	.	.	.	.	.	.	.	.	.
8G\	.	16ee\	.	8g/	.	8b\	.	.	.	.	.	8dd\	.	.	.
.	.	16ff#\JJ	.	.	.	.	.	.	.	.	.	.	.	.	.
8G\	.	8gg\L	.	8g/	.	8b\	.	4g\	.	4b\	.	8b\	.	.	.
8G\J	.	8b\J	.	8g/J	.	8b\J	.	.	.	.	.	8dd\J	.	.	.
=40	=40	=40	=40	=40	=40	=40	=40	=40	=40	=40	=40	=40	=40	=40	=40
!	!	!LO:LB:g=original	!	!	!	!	!	!LO:LB:g=original	!	!	!	!	!	!	!
8D\L	.	16cc\LL	.	8a/L	.	8cc\L	.	4a\	.	4cc\	.	8a/L	.	2.ff#\	.
.	.	16a\	.	.	.	.	.	.	.	.	.	.	.	.	.
8D\	.	16b\	.	8a/	.	8cc\	.	.	.	.	.	8cc/	.	.	.
.	.	16cc\JJ	.	.	.	.	.	.	.	.	.	.	.	.	.
8D\	.	16dd\LL	.	8a/	.	8cc\	.	4r	.	4r	.	8a/	.	.	.
.	.	16ee\	.	.	.	.	.	.	.	.	.	.	.	.	.
8D\	.	16ff#\	.	8a/	.	8cc\	.	.	.	.	.	8cc/	.	.	.
.	.	16gg\JJ	.	.	.	.	.	.	.	.	.	.	.	.	.
8D\	.	8aa\L	.	8a/	.	8cc\	.	4a\	.	4cc\	.	8a/	.	.	.
8D\J	.	8cc\J	.	8a/J	.	8cc\J	.	.	.	.	.	8cc/J	.	.	.
=41	=41	=41	=41	=41	=41	=41	=41	=41	=41	=41	=41	=41	=41	=41	=41
!LO:LB:g=original	!	!	!	!	!	!	!	!	!	!	!	!	!	!	!
8G\L	.	16b\LL	.	8g/L	.	8b\L	.	4g\	.	4b\	.	8b\L	.	2.gg\	.
.	.	16g\	.	.	.	.	.	.	.	.	.	.	.	.	.
8G\	.	16a\	.	8g/	.	8b\	.	.	.	.	.	8dd\	.	.	.
.	.	16b\JJ	.	.	.	.	.	.	.	.	.	.	.	.	.
8G\	.	16cc\LL	.	8g/	.	8b\	.	4r	.	4r	.	8b\	.	.	.
.	.	16dd\	.	.	.	.	.	.	.	.	.	.	.	.	.
8G\	.	16ee\	.	8g/	.	8b\	.	.	.	.	.	8dd\	.	.	.
.	.	16ff#\JJ	.	.	.	.	.	.	.	.	.	.	.	.	.
8G\	.	8gg\L	.	8g/	.	8b\	.	4g\	.	4b\	.	8b\	.	.	.
8G\J	.	8b\J	.	8g/J	.	8b\J	.	.	.	.	.	8dd\J	.	.	.
*Xtremolo	*	*	*	*Xtremolo	*	*Xtremolo	*	*	*	*	*	*	*	*	*
=42	=42	=42	=42	=42	=42	=42	=42	=42	=42	=42	=42	=42	=42	=42	=42
4G\	.	16dd\LL	.	8b/L	.	8dd\L	.	4b\	.	4dd\	.	8dd\L	.	16dd\LL	.
.	.	16ee\	.	.	.	.	.	.	.	.	.	.	.	16ee\	.
.	.	16ff#\	.	8b/	.	8dd\	.	.	.	.	.	8dd\	.	16ff#\	.
.	.	16gg\JJ	.	.	.	.	.	.	.	.	.	.	.	16gg\JJ	.
4F#\	.	4cc\	.	8a/	.	8cc\	.	4a\	.	4cc\	.	8cc\	.	8aa\L	.
.	.	.	.	8a/	.	8cc\	.	.	.	.	.	8a\J	.	8cc\	.
.	.	16qqdd/	.	.	.	.	.	.	.	.	.	.	.	.	.
4G\	.	4b\	-pe	8g/	.	8b\	.	4g\	.	4b\	.	8g/L	.	8b\	.
.	.	.	.	8g/J	.	8b\J	.	.	.	.	.	8b/J	.	8gg\J	.
=43	=43	=43	=43	=43	=43	=43	=43	=43	=43	=43	=43	=43	=43	=43	=43
!	!	!	!	!	!	!	!	!	!	!	!	!LO:LB:g=original	!	!	!
.	.	8qqcc/	co	.	.	.	.	.	.	.	.	.	.	.	.
4d\	.	8b\L	.	8g/L	.	8b/L	.	4g\	.	4b\	.	8g/L	.	8b/L	.
.	.	16a\L	-ro-	16f#/L	.	16a/L	.	.	.	.	.	8e/J	.	8g/J	.
.	.	16b\JJ	.	16g/JJ	.	16b/JJ	.	.	.	.	.	.	.	.	.
4A\	.	4a\	-nam	4f#/	.	4a/	.	4d/	.	4a\	.	4f#/	.	4a/	.
!	!	!	!	!	!LO:DY:t=for	!	!LO:DY:t=for	!	!	!	!	!	!	!	!
4D\	.	4r	.	4d/ 4a 4ff#	f	4d/ 4a 4ff#	f	4r	.	4r	.	4f#/	.	4a/	.
=44	=44	=44	=44	=44	=44	=44	=44	=44	=44	=44	=44	=44	=44	=44	=44
*	*	*	*	*tremolo	*	*	*	*	*	*	*	*	*	*	*
!	!	!LO:LB:g=original	!	!	!	!	!	!LO:N:vis=00	!	!LO:N:vis=00	!	!	!	!	!
4D\	.	4a\	quam	8dd\L	.	8dd\L	.	0.r	.	0.r	.	2.dd\	.	2.dd\	.
.	.	.	.	8dd\	.	8dd\	.	.	.	.	.	.	.	.	.
4D\	.	8aa\	ti-	8dd\	.	8ff#\	.	.	.	.	.	.	.	.	.
.	.	8qqgg/	.	.	.	.	.	.	.	.	.	.	.	.	.
.	.	8ff#\	.	8dd\	.	8ff#\	.	.	.	.	.	.	.	.	.
.	.	8qqff#/	.	.	.	.	.	.	.	.	.	.	.	.	.
4D\	.	8ee\	.	8dd\	.	8dd\	.	.	.	.	.	.	.	.	.
.	.	8qqee/	.	.	.	.	.	.	.	.	.	.	.	.	.
.	.	8dd\	-bi	8dd\J	.	8dd\J	.	.	.	.	.	.	.	.	.
*	*	*	*	*Xtremolo	*	*	*	*	*	*	*	*	*	*	*
=45	=45	=45	=45	=45	=45	=45	=45	=45	=45	=45	=45	=45	=45	=45	=45
!	!	!	!	!	!	!LO:LB:g=original	!	!	!	!	!	!	!	!	!
4A\	.	16cc#X\LL	Do-	8a\L	.	8cc#\L	.	.	.	.	.	2.cc#X\	.	2.ee\	.
.	.	16dd\	.	.	.	.	.	.	.	.	.	.	.	.	.
.	.	16cc#\	.	8a\	.	8cc#y\	.	.	.	.	.	.	.	.	.
.	.	16dd\JJ	.	.	.	.	.	.	.	.	.	.	.	.	.
4A\	.	16ee\LL	.	8cc#X\	.	8ee\	.	.	.	.	.	.	.	.	.
.	.	16ff#\	.	.	.	.	.	.	.	.	.	.	.	.	.
.	.	16ee\	.	8cc#\	.	8ee\	.	.	.	.	.	.	.	.	.
.	.	16ff#\JJ	.	.	.	.	.	.	.	.	.	.	.	.	.
4A\	.	4gg\	.	8ee\	.	8gg\	.	.	.	.	.	.	.	.	.
.	.	.	.	8ee\J	.	8gg\J	.	.	.	.	.	.	.	.	.
=46	=46	=46	=46	=46	=46	=46	=46	=46	=46	=46	=46	=46	=46	=46	=46
*	*	*	*	*tremolo	*	*tremolo	*	*	*	*	*	*	*	*	*
!	!	!	!	!	!	!	!	!	!	!	!	!	!	!	!
4A\	.	16gg\LL	.	8ee\L	.	8gg\L	.	.	.	.	.	2.ee\	.	2.gg\	.
.	.	16ff#\	.	.	.	.	.	.	.	.	.	.	.	.	.
.	.	16ee\	.	8ee\	.	8gg\	.	.	.	.	.	.	.	.	.
.	.	16ff#\JJ	.	.	.	.	.	.	.	.	.	.	.	.	.
4AA/	.	16gg\LL	.	8ee\	.	8gg\	.	.	.	.	.	.	.	.	.
.	.	16ff#\	.	.	.	.	.	.	.	.	.	.	.	.	.
.	.	16ee\	.	8ee\	.	8gg\	.	.	.	.	.	.	.	.	.
.	.	16dd\JJ	.	.	.	.	.	.	.	.	.	.	.	.	.
4A\	.	16cc#X\LL	.	8ee\	.	8gg\	.	.	.	.	.	.	.	.	.
.	.	16b\	.	.	.	.	.	.	.	.	.	.	.	.	.
.	.	16a\	.	8ee\J	.	8gg\J	.	.	.	.	.	.	.	.	.
.	.	16g\JJ	.	.	.	.	.	.	.	.	.	.	.	.	.
*	*	*	*	*Xtremolo	*	*Xtremolo	*	*	*	*	*	*	*	*	*
=47	=47	=47	=47	=47	=47	=47	=47	=47	=47	=47	=47	=47	=47	=47	=47
!	!	!LO:TX:a:t=problem: mixed beam	!	!LO:LB:g=original	!	!	!	!	!	!	!	!	!	!LO:LB:g=original	!
4D/	.	8f#/L	.	8dd\L	.	8ff#\L	.	.	.	.	.	4dd\	.	4ff#\	.
.	.	8aa\	.	8dd\	.	8ff#\	.	.	.	.	.	.	.	.	.
4C#X/	.	8g/	.	8ee\	.	8gg\	.	.	.	.	.	4ee\	.	4gg\	.
.	.	8bb\J	.	8ee\	.	8gg\	.	.	.	.	.	.	.	.	.
4D/	.	8a\L	.	8ff#\	.	8aa\	.	.	.	.	.	4ff#\	.	4aa\	.
.	.	8ccc\J	.	8ff#\J	.	8aa\J	.	.	.	.	.	.	.	.	.
=48	=48	=48	=48	=48	=48	=48	=48	=48	=48	=48	=48	=48	=48	=48	=48
!	!	!LO:LB:g=original	!	!	!	!	!	!LO:N:vis=00	!	!LO:N:vis=00	!	!	!	!	!
4D/	.	8ddd\L	.	8ff#\L	.	8ddd\L	.	0.r	.	0.r	.	8ff#\L	.	8r	.
.	.	8gg\J	.	8ee\	.	8gg\	.	.	.	.	.	8ee\	.	8gg\L	.
8C/L	.	4gg\	-mi-	8ee\	.	8gg\	.	.	.	.	.	8ee\	.	8gg\	.
8AA/	.	.	.	8ee\	.	8gg\	.	.	.	.	.	8ee\	.	8gg\	.
8D/	.	4ff#\	-nus	8dd\	.	8ff#\	.	.	.	.	.	8dd\	.	8ff#\	.
8F#/J	.	.	.	8dd\J	.	8ff#\J	.	.	.	.	.	8dd\J	.	8ff#\J	.
=49	=49	=49	=49	=49	=49	=49	=49	=49	=49	=49	=49	=49	=49	=49	=49
!LO:TX:a:t=problem: mixed beam	!	!	!	!	!	!	!	!	!	!	!	!	!	!	!
8G\L	.	16ff#\LL	prae-	8ee\L	.	8ee\L	.	.	.	.	.	8ee\L	.	8ee\L	.
.	.	16ee\	.	.	.	.	.	.	.	.	.	.	.	.	.
8G\	.	16gg\	-pa-	8ee\	.	8ee\	.	.	.	.	.	8ee\	.	8ee\	.
.	.	16ee\JJ	.	.	.	.	.	.	.	.	.	.	.	.	.
8A\	.	4dd\	-ra-	8dd\	.	8dd\	.	.	.	.	.	8dd\	.	8dd\	.
8A\	.	.	.	8dd\	.	8dd\	.	.	.	.	.	8dd\	.	8dd\	.
!	!	!LO:TX:a:t=SIC:s=c#	!	!	!	!	!	!	!	!	!	!	!	!	!
.	.	8qqdd/	.	.	.	.	.	.	.	.	.	.	.	.	.
8AA/	.	4cc\	.	8cc#X\	.	8cc#X\	.	.	.	.	.	8cc#X\	.	8cc#X\	.
8AA/J	.	.	.	8cc#\J	.	8cc#\J	.	.	.	.	.	8cc#\J	.	8cc#\J	.
=50	=50	=50	=50	=50	=50	=50	=50	=50	=50	=50	=50	=50	=50	=50	=50
!LO:LB:g=original	!	!	!	!	!	!	!	!	!	!	!	!	!	!	!
8D/	.	32dd\LLL	in	8dd\L	.	8ff#\L	.	.	.	.	.	4dd\	.	4dd\	.
!	!	!LO:TX:a:Bi:t=t	!	!	!	!	!	!	!	!	!	!	!	!	!
.	.	32dd\J	.	.	.	.	.	.	.	.	.	.	.	.	.
.	.	16cc#X\	.	.	.	.	.	.	.	.	.	.	.	.	.
8r	.	16dd\	.	8dd\J	.	8ff#\J	.	.	.	.	.	.	.	.	.
.	.	16ee\JJ	.	.	.	.	.	.	.	.	.	.	.	.	.
8D/	.	32ff#\LLL	.	8r	.	8r	.	.	.	.	.	4r	.	4r	.
!	!	!LO:TX:a:Bi:t=t	!	!	!	!	!	!	!	!	!	!	!	!	!
.	.	32ff#\J	.	.	.	.	.	.	.	.	.	.	.	.	.
.	.	16ee\	.	.	.	.	.	.	.	.	.	.	.	.	.
8r	.	16ff#\	.	8dd\	.	8ff#\	.	.	.	.	.	.	.	.	.
.	.	16gg\JJ	.	.	.	.	.	.	.	.	.	.	.	.	.
8D/	.	16aa\LL	.	8r	.	8r	.	.	.	.	.	4r	.	4r	.
.	.	16bb\	.	.	.	.	.	.	.	.	.	.	.	.	.
8r	.	16ccc\	.	8ff#\	.	8aa\	.	.	.	.	.	.	.	.	.
.	.	16ddd\JJ	.	.	.	.	.	.	.	.	.	.	.	.	.
=51	=51	=51	=51	=51	=51	=51	=51	=51	=51	=51	=51	=51	=51	=51	=51
*tremolo	*	*2\right	*	*tremolo	*	*tremolo	*	*	*	*	*	*	*	*	*
!	!	!	!	!	!	!	!	!	!	!	!	!LO:LB:g=original	!	!	!
8A\L	.	2a\	ae-	8dd\L	.	8ff#\L	.	.	.	.	.	2.r	.	2.r	.
8A\	.	.	.	8dd\	.	8ff#\	.	.	.	.	.	.	.	.	.
8A\	.	.	.	8dd\	.	8ff#\	.	.	.	.	.	.	.	.	.
8A\J	.	.	.	8dd\J	.	8ff#\J	.	.	.	.	.	.	.	.	.
*Xtremolo	*	*	*	*Xtremolo	*	*Xtremolo	*	*	*	*	*	*	*	*	*
8AA/L	.	4ee\	-ter-	8cc#X\L	.	8ee\L	.	.	.	.	.	.	.	.	.
8AA/J	.	.	.	8cc#\J	.	8ee\J	.	.	.	.	.	.	.	.	.
=52	=52	=52	=52	=52	=52	=52	=52	=52	=52	=52	=52	=52	=52	=52	=52
*tremolo	*	*	*	*	*	*	*	*	*	*	*	*	*	*	*
!	!	!	!	!	!LO:DY:a	!	!	!	!	!	!	!	!	!	!
!	!	!	!	!	!LO:DY:t=for	!LO:LB:g=original	!LO:DY:t=for	!LO:N:vis=0	!	!LO:N:vis=0	!	!	!LO:DY:t=for	!	!
8D\L	.	4dd\	-num	16dd\LL	f	16dd\LL	f	1.r	.	1.r	.	4dd\	f	4ff#\	.
.	.	.	.	16a\	.	16a\	.	.	.	.	.	.	.	.	.
8D\	.	.	.	16dd\	.	16dd\	.	.	.	.	.	.	.	.	.
.	.	.	.	16ff#\JJ	.	16ff#\JJ	.	.	.	.	.	.	.	.	.
8D\	.	4r	.	16aa\LL	.	16aa\LL	.	.	.	.	.	2ff#\	.	2aa\	.
.	.	.	.	16ff#\	.	16ff#\	.	.	.	.	.	.	.	.	.
8D\	.	.	.	16ff#\	.	16ff#\	.	.	.	.	.	.	.	.	.
.	.	.	.	16aa\JJ	.	16aa\JJ	.	.	.	.	.	.	.	.	.
8D\	.	4r	.	16aa\LL	.	16aa\LL	.	.	.	.	.	.	.	.	.
.	.	.	.	16ff#\	.	16ff#\	.	.	.	.	.	.	.	.	.
8D\J	.	.	.	16ff#\	.	16ff#\	.	.	.	.	.	.	.	.	.
.	.	.	.	16aa\JJ	.	16aa\JJ	.	.	.	.	.	.	.	.	.
*Xtremolo	*	*	*	*	*	*	*	*	*	*	*	*	*	*	*
=53	=53	=53	=53	=53	=53	=53	=53	=53	=53	=53	=53	=53	=53	=53	=53
!LO:TX:a:t=problem: mixed beam	!	!LO:LB:g=original	!	!LO:LB:g=original	!	!	!	!	!	!	!	!	!	!	!
!	!	!LO:N:vis=00	!	!	!	!	!	!	!	!	!	!	!	!	!
8A\L	.	0.r	.	16gg\LL	.	16gg\LL	.	.	.	.	.	2.ee\	.	2.gg\	.
.	.	.	.	16ee\	.	16ee\	.	.	.	.	.	.	.	.	.
8A\	.	.	.	16ee\	.	16ee\	.	.	.	.	.	.	.	.	.
.	.	.	.	16cc#X\JJ	.	16cc#X\JJ	.	.	.	.	.	.	.	.	.
8AA/	.	.	.	16gg\LL	.	16gg\LL	.	.	.	.	.	.	.	.	.
.	.	.	.	16ee\	.	16ee\	.	.	.	.	.	.	.	.	.
8AA/	.	.	.	16ee\	.	16ee\	.	.	.	.	.	.	.	.	.
.	.	.	.	16cc#\JJ	.	16cc#\JJ	.	.	.	.	.	.	.	.	.
8A\	.	.	.	16gg\LL	.	16gg\LL	.	.	.	.	.	.	.	.	.
.	.	.	.	16ee\	.	16ee\	.	.	.	.	.	.	.	.	.
8A\J	.	.	.	16ee\	.	16ee\	.	.	.	.	.	.	.	.	.
.	.	.	.	16cc#\JJ	.	16cc#\JJ	.	.	.	.	.	.	.	.	.
=54	=54	=54	=54	=54	=54	=54	=54	=54	=54	=54	=54	=54	=54	=54	=54
8D\L	.	.	.	16dd\LL	.	16dd\LL	.	4r	.	4r	.	4dd\	.	4ff#\	.
.	.	.	.	16ee\	.	16ee\	.	.	.	.	.	.	.	.	.
8D\	.	.	.	16ff#\	.	16ff#\	.	.	.	.	.	.	.	.	.
.	.	.	.	16gg\JJ	.	16gg\JJ	.	.	.	.	.	.	.	.	.
8F#\	.	.	.	16ff#\LL	.	16aa\LL	.	4d/	.	4a\	.	4r	.	4r	.
.	.	.	.	16ff#\	.	16aa\	.	.	.	.	.	.	.	.	.
8D\	.	.	.	16ccn\	.	16ff#\	.	.	.	.	.	.	.	.	.
.	.	.	.	16cc\JJ	.	16ff#\JJ	.	.	.	.	.	.	.	.	.
8F#\	.	.	.	16a/LL	.	16aa\LL	.	4d/	.	4a\	.	4r	.	4r	.
.	.	.	.	16a/	.	16aa\	.	.	.	.	.	.	.	.	.
8D\J	.	.	.	16a/	.	16ccn\	.	.	.	.	.	.	.	.	.
.	.	.	.	16a/JJ	.	16cc\JJ	.	.	.	.	.	.	.	.	.
=55	=55	=55	=55	=55	=55	=55	=55	=55	=55	=55	=55	=55	=55	=55	=55
!	!	!	!	!	!	!	!	!	!	!LO:LB:g=original	!	!	!	!LO:LB:g=original	!
!	!	!	!	!	!	!	!	!	!	!	!	!LO:N:vis=00	!	!LO:N:vis=00	!
.	.	.	.	.	.	16qqb/	.	.	.	.	.	.	.	.	.
8G\L	.	.	.	8.b/L	.	8.gg\L	.	4b\	.	4dd\	.	0.r	.	0.r	.
8G\	.	.	.	.	.	.	.	.	.	.	.	.	.	.	.
.	.	.	.	16b/K	.	16dd\K	.	.	.	.	.	.	.	.	.
8F#\	.	.	.	8.b/	.	8.dd\	.	4a\	.	4cc\	.	.	.	.	.
8F#\	.	.	.	.	.	.	.	.	.	.	.	.	.	.	.
.	.	.	.	16a/K	.	16cc\K	.	.	.	.	.	.	.	.	.
8G\	.	.	.	8.a/	.	8.cc\	.	4g\	.	4b\	.	.	.	.	.
8G\J	.	.	.	.	.	.	.	.	.	.	.	.	.	.	.
.	.	.	.	16g/Jk	.	16b\Jk	.	.	.	.	.	.	.	.	.
=56	=56	=56	=56	=56	=56	=56	=56	=56	=56	=56	=56	=56	=56	=56	=56
.	.	.	.	.	.	8qqcc/	.	.	.	.	.	.	.	.	.
4D\	.	.	.	8g/L	.	8b/L	.	4g\	.	4b\	.	.	.	.	.
.	.	.	.	16f#/L	.	16a/L	.	.	.	.	.	.	.	.	.
.	.	.	.	16g/JJ	.	16b/JJ	.	.	.	.	.	.	.	.	.
!	!	!	!	!	!	!LO:LB:g=original	!	!	!	!	!	!	!	!	!
4D\	.	.	.	16a/LL	.	16a/LL	.	4d/	.	4a\	.	.	.	.	.
.	.	.	.	16d/	.	16d/	.	.	.	.	.	.	.	.	.
.	.	.	.	16e/	.	16e/	.	.	.	.	.	.	.	.	.
.	.	.	.	16f#/JJ	.	16f#/JJ	.	.	.	.	.	.	.	.	.
4D\	.	.	.	16g/LL	.	16g/LL	.	4r	.	4r	.	.	.	.	.
.	.	.	.	16a/	.	16a/	.	.	.	.	.	.	.	.	.
.	.	.	.	16b/	.	16b/	.	.	.	.	.	.	.	.	.
.	.	.	.	16cc#X/JJ	.	16cc#X/JJ	.	.	.	.	.	.	.	.	.
=57	=57	=57	=57	=57	=57	=57	=57	=57	=57	=57	=57	=57	=57	=57	=57
!	!	!LO:N:vis=0	!	!LO:TX:a:t=problem: mixed beam	!	!	!	!	!	!	!	!	!	!	!
4D\	.	1.r	.	8dd\L	.	4dd\	.	4r	.	4r	.	.	.	.	.
.	.	.	.	8f#/	.	.	.	.	.	.	.	.	.	.	.
8D\L	.	.	.	8f#/	.	4d/ 4a 4ff#	.	4d/	.	4a\	.	.	.	.	.
8d\	.	.	.	8a/	.	.	.	.	.	.	.	.	.	.	.
8D\	.	.	.	8f#/	.	4d/ 4a 4ff#	.	4d/	.	4a\	.	.	.	.	.
8d\J	.	.	.	8a/J	.	.	.	.	.	.	.	.	.	.	.
=58	=58	=58	=58	=58	=58	=58	=58	=58	=58	=58	=58	=58	=58	=58	=58
!LO:LB:g=original	!	!	!	!	!	!	!	!	!	!	!	!	!	!	!
4D\	.	.	.	4f#/	.	4d/ 4a 4ff#	.	4d/	.	4a\	.	.	.	.	.
8d\L	.	.	.	4r	.	4r	.	4r	.	4r	.	.	.	.	.
8c\	.	.	.	.	.	.	.	.	.	.	.	.	.	.	.
8B\	.	.	.	4r	.	4r	.	4r	.	4r	.	.	.	.	.
8A\J	.	.	.	.	.	.	.	.	.	.	.	.	.	.	.
=59	=59	=59	=59	=59	=59	=59	=59	=59	=59	=59	=59	=59	=59	=59	=59
!LO:TX:a:t=Fagotto	!	!	!	!LO:LB:g=original	!LO:DY:a	!	!	!LO:LB:g=original	!	!LO:N:vis=00	!	!LO:N:vis=00	!	!LO:TX:a:t=Solo	!
!	!	!	!	!	!LO:DY:t=pianis	!	!LO:DY:t=pianis	!LO:N:vis=00	!	!	!	!	!	!	!
4G\	.	8.dd\L	Ve-	8.dd\L	pp	8.dd\L	pp	0.r	.	0.r	.	0.r	.	8.b/L	.
.	.	16cc\Jk	.	16cc\Jk	.	16cc\Jk	.	.	.	.	.	.	.	16a/Jk	.
!	!	!	!	!	!	!	!	!	!	!	!	!	!	!LO:TX:a:t=problem: mixed beam	!
4B\	.	8b\L	.	8b\L	.	8b\L	.	.	.	.	.	.	.	8g/L	.
.	.	8gg\	.	8gg\	.	8gg\	.	.	.	.	.	.	.	8ee\	.
4G\	.	8ff#\	.	8ff#\	.	8ff#\	.	.	.	.	.	.	.	8dd\	.
.	.	8ee\J	.	8ee\J	.	8ee\J	.	.	.	.	.	.	.	8cc\J	.
=60	=60	=60	=60	=60	=60	=60	=60	=60	=60	=60	=60	=60	=60	=60	=60
8.D\L	.	8.dd\L	.	8.dd\L	.	8.dd\L	.	.	.	.	.	.	.	8.b/L	.
16D\Jk	.	16cc\Jk	-ni	16cc\Jk	.	16cc\Jk	.	.	.	.	.	.	.	16a/Jk	.
*	*	*	*	*tremolo	*	*tremolo	*	*	*	*	*	*	*	*	*
!	!	!	!	!	!	!	!	!	!	!	!	!	!	!LO:TX:a:t=problem: mixed beam	!
4G\	.	8b\L	Spon-	8b\L	.	8b\L	.	.	.	.	.	.	.	8g/L	.
.	.	8b\	.	8b\	.	8b\	.	.	.	.	.	.	.	8gg\	.
4G\	.	8b\	.	8b\	.	8b\	.	.	.	.	.	.	.	8gg\	.
.	.	8b\J	-sa	8b\J	.	8b\J	.	.	.	.	.	.	.	8gg\J	.
*	*	*	*	*Xtremolo	*	*Xtremolo	*	*	*	*	*	*	*	*	*
=61	=61	=61	=61	=61	=61	=61	=61	=61	=61	=61	=61	=61	=61	=61	=61
4G\	.	8.dd\L	Spon-	8.dd\L	.	8.dd\L	.	.	.	.	.	.	.	8.b/L	.
.	.	16cc\Jk	.	16cc\Jk	.	16cc\Jk	.	.	.	.	.	.	.	16a/Jk	.
!	!	!	!	!	!	!	!	!	!	!	!	!	!	!LO:TX:a:t=problem: mixed beam	!
4B\	.	8b\L	.	8b\L	.	8b\L	.	.	.	.	.	.	.	8g/L	.
.	.	8gg\	.	8gg\	.	8gg\	.	.	.	.	.	.	.	8ee\	.
4G\	.	8ff#\	.	8ff#\	.	8ff#\	.	.	.	.	.	.	.	8dd\	.
.	.	8ee\J	.	8ee\J	.	8ee\J	.	.	.	.	.	.	.	8cc\J	.
=62	=62	=62	=62	=62	=62	=62	=62	=62	=62	=62	=62	=62	=62	=62	=62
!	!	!	!	!	!	!	!	!	!	!	!	!	!	!LO:TX:a:t=problem: mixed beam	!
8.D\L	.	8.dd\L	.	8.dd\L	.	8.dd\L	.	.	.	.	.	.	.	8.b/L	.
16D\Jk	.	16cc\Jk	.	16cc\Jk	.	16cc\Jk	.	.	.	.	.	.	.	16a/Jk	.
*	*	*	*	*	*	*	*	*	*	*	*	*	*	*	*
4G\	.	8b\L	.	8b\L	.	8b\L	.	.	.	.	.	.	.	8g/L	.
.	.	8b\	.	8b\	.	8b\	.	.	.	.	.	.	.	8gg\	.
4G\	.	8b\	.	8b\	.	8b\	.	.	.	.	.	.	.	8gg\	.
.	.	8b\J	-sa	8b\J	.	8b\J	.	.	.	.	.	.	.	8gg\J	.
*	*	*	*	*	*	*	*	*	*	*	*	*	*	*	*
=63	=63	=63	=63	=63	=63	=63	=63	=63	=63	=63	=63	=63	=63	=63	=63
!	!	!	!	!	!	!LO:LB:g=original	!	!LO:N:vis=00	!	!LO:N:vis=00	!	!LO:N:vis=00	!	!	!
8G\L	.	8b\L	Chris-	(8b\L	.	(8b\L	.	0.r	.	0.r	.	0.r	.	(8gg\L	.
8D\	.	8cc\J	.	8cc\J)	.	8cc\J)	.	.	.	.	.	.	.	8aa\J)	.
!	!	!LO:LB:g=original	!	!	!	!	!	!	!	!	!	!	!	!	!
8F#\	.	8r	.	8r	.	8r	.	.	.	.	.	.	.	8r	.
8D\	.	8cc\L	.	8cc\L	.	8cc\L	.	.	.	.	.	.	.	8aa\L	.
8G\	.	8b\	.	8b\	.	8b\	.	.	.	.	.	.	.	8gg\	.
8G\J	.	8gg\J	-sti	8gg\J	.	8gg\J	.	.	.	.	.	.	.	8b\J	.
=64	=64	=64	=64	=64	=64	=64	=64	=64	=64	=64	=64	=64	=64	=64	=64
!	!	!	!	!	!	!	!	!	!	!	!	!	!	!LO:TX:a:t=problem: repetycja tt.63	!
8G\L	.	8b\L	Chri-	(8b\L	.	(8b\L	.	.	.	.	.	.	.	(8gg\Lyy	.
8D\	.	8cc\J	.	8cc\J)	.	8cc\J)	.	.	.	.	.	.	.	8aa\J)yy	.
8F#\	.	8r	.	8r	.	8r	.	.	.	.	.	.	.	8ryy	.
8D\	.	8cc\L	.	8cc\L	.	8cc\L	.	.	.	.	.	.	.	8aa\Lyy	.
8G\	.	8b\	.	8b\	.	8b\	.	.	.	.	.	.	.	8gg\yy	.
8G\J	.	8gg\J	.	8gg\J	.	8gg\J	.	.	.	.	.	.	.	8b\Jyy	.
=65	=65	=65	=65	=65	=65	=65	=65	=65	=65	=65	=65	=65	=65	=65	=65
8c\L	.	8.ff#\L	.	8.ff#\L	.	8.ff#\L	.	.	.	.	.	.	.	8.a/L	.
8B\	.	.	.	.	.	.	.	.	.	.	.	.	.	.	.
!	!	!L0:N:vis=8	!	!	!	!	!	!	!	!	!	!	!	!	!
.	.	16gg\K	.	16gg\K	.	16gg\K	.	.	.	.	.	.	.	16b/K	.
8c\	.	8ff#\	.	8ff#\	.	8.ff#\	.	.	.	.	.	.	.	8a/	.
8B\	.	8gg\	.	8gg\	.	.	.	.	.	.	.	.	.	8b/	.
.	.	.	.	.	.	16gg\K	.	.	.	.	.	.	.	.	.
8c\	.	8ff#\	.	8ff#\	.	8.ff#\	.	.	.	.	.	.	.	8a/	.
8B\J	.	8gg\J	-sti	8gg\J	.	.	.	.	.	.	.	.	.	8b/J	.
.	.	.	.	.	.	16gg\Jk	.	.	.	.	.	.	.	.	.
=66	=66	=66	=66	=66	=66	=66	=66	=66	=66	=66	=66	=66	=66	=66	=66
!LO:LB:g=original	!	!	!	!LO:N:vis=0	!	!LO:N:vis=0	!	!	!	!	!	!	!	!	!
4G\	.	8bb\L	Chri-	1.r	.	1.r	.	.	.	.	.	.	.	8gg\L	.
.	.	8aa\	.	.	.	.	.	.	.	.	.	.	.	8ff#\	.
4G\	.	8gg\	.	.	.	.	.	.	.	.	.	.	.	8ee\	.
.	.	8ff#\	.	.	.	.	.	.	.	.	.	.	.	8dd\	.
4G\	.	8ee\	.	.	.	.	.	.	.	.	.	.	.	8cc\	.
.	.	8dd\J	-sti	.	.	.	.	.	.	.	.	.	.	8b\J	.
=67	=67	=67	=67	=67	=67	=67	=67	=67	=67	=67	=67	=67	=67	=67	=67
!	!	!	!	!	!	!	!	!	!	!	!	!	!	!LO:LB:g=original	!
4D\	.	(4dd\	Spon-	.	.	.	.	2.r	.	2.r	.	2.r	.	4b/	.
4F#\	.	4cc\)	.	.	.	.	.	.	.	.	.	.	.	4a/	.
4G\	.	4b\	-sa	.	.	.	.	.	.	.	.	.	.	4g/	.
=68	=68	=68	=68	=68	=68	=68	=68	=68	=68	=68	=68	=68	=68	=68	=68
!	!	!LO:TX:a:t=1	!	!	!	!	!	!	!	!	!	!	!	!	!
4d\	.	2.r	.	2.r	.	2.r	.	4b\	.	4gg\	.	4b/	.	4gg\	.
4D/	.	.	.	.	.	.	.	4a\	.	4ff#\	.	8a/L	.	8ff#\L	.
.	.	.	.	.	.	.	.	.	.	.	.	16g/L	.	16ee\L	.
.	.	.	.	.	.	.	.	.	.	.	.	16a/JJ	.	16ff#\JJ	.
4G\	.	.	.	.	.	.	.	4b\	.	4gg\	.	4b/	.	4gg\	.
=69	=69	=69	=69	=69	=69	=69	=69	=69	=69	=69	=69	=69	=69	=69	=69
!	!	!LO:LB:g=original	!	!	!	!	!	!	!	!	!	!	!	!	!
4G\	.	8dd\L	ve-	8b/L	.	(8dd\L	.	8b\L	.	8dd\L	.	8b/L	.	(8b/L	.
.	.	8b\J	-ni	8g/	.	8b\)	.	8g\	.	8b\	.	8g/	.	8g/J)	.
8r	.	8r	.	8g/J	.	8b`\J	.	8g\	.	8b\	.	8g/J	.	8r	.
8G\L	.	8dd\	Spon-	8r	.	8r	.	8b\	.	8dd\	.	8r	.	8b/	.
8G\	.	16ee\LL	.	4r	.	4r	.	8b\	.	8dd\	.	4r	.	16cc/LL	.
.	.	16dd\	.	.	.	.	.	.	.	.	.	.	.	16b/	.
8G\J	.	16cc\	.	.	.	.	.	8g\J	.	8b\J	.	.	.	16a/	.
.	.	16b\JJ	.	.	.	.	.	.	.	.	.	.	.	16g/JJ	.
=70	=70	=70	=70	=70	=70	=70	=70	=70	=70	=70	=70	=70	=70	=70	=70
!	!	!	!	!LO:LB:g=original	!	!	!	!LO:TX:a:t=problem:mixed beam	!	!	!	!LO:LB:g=original	!	!	!
4D\	.	8cc\L	.	8a/L	.	(8cc/L	.	8a\L	.	8cc\L	.	8a/L	.	8a/L	.
.	.	8a\J	-sa	8d/	.	8a/)	.	8d/	.	8a\	.	8d/	.	8f#/J	.
8r	.	8r	.	8d/J	.	8a`/J	.	8d/	.	8a\	.	8d/J	.	8r	.
8D\L	.	8cc\	Spon-	8r	.	8r	.	8a/	.	8cc\	.	8r	.	8a/	.
8F#\	.	16dd\LL	.	4r	.	4r	.	8a/	.	8cc\	.	4r	.	16b/LL	.
.	.	16cc\	.	.	.	.	.	.	.	.	.	.	.	16a/	.
8D\J	.	16b\	.	.	.	.	.	8d/J	.	8a\J	.	.	.	16g/	.
.	.	16a\JJ	.	.	.	.	.	.	.	.	.	.	.	16f#/JJ	.
=71	=71	=71	=71	=71	=71	=71	=71	=71	=71	=71	=71	=71	=71	=71	=71
4G\	.	16b\LL	.	4g/	.	4b/	.	4g\	.	4b\	.	4g/	.	2.r	.
.	.	16g\	.	.	.	.	.	.	.	.	.	.	.	.	.
.	.	16a\	.	.	.	.	.	.	.	.	.	.	.	.	.
.	.	16b\JJ	.	.	.	.	.	.	.	.	.	.	.	.	.
4G\	.	16cc\LL	.	4r	.	4r	.	4r	.	4r	.	4r	.	.	.
.	.	16dd\	.	.	.	.	.	.	.	.	.	.	.	.	.
.	.	16ee\	.	.	.	.	.	.	.	.	.	.	.	.	.
.	.	16ff#\JJ	.	.	.	.	.	.	.	.	.	.	.	.	.
4G\	.	4gg\	-sa	4r	.	4r	.	4r	.	4r	.	4r	.	.	.
=72	=72	=72	=72	=72	=72	=72	=72	=72	=72	=72	=72	=72	=72	=72	=72
!	!	!LO:TX:a:t=1	!	!	!	!LO:LB:g=original	!	!	!	!LO:LB:g=original	!	!	!	!	!
4G\	.	2.r	.	2.r	.	2.r	.	4g\	.	4b\	.	2.r	.	16b/LL	.
.	.	.	.	.	.	.	.	.	.	.	.	.	.	16g/	.
.	.	.	.	.	.	.	.	.	.	.	.	.	.	16a/	.
.	.	.	.	.	.	.	.	.	.	.	.	.	.	16b/JJ	.
4G\	.	.	.	.	.	.	.	4r	.	4r	.	.	.	16cc\LL	.
.	.	.	.	.	.	.	.	.	.	.	.	.	.	16dd\	.
.	.	.	.	.	.	.	.	.	.	.	.	.	.	16ee\	.
.	.	.	.	.	.	.	.	.	.	.	.	.	.	16ff#\JJ	.
4G\	.	.	.	.	.	.	.	4r	.	4r	.	.	.	4gg\	.
=73	=73	=73	=73	=73	=73	=73	=73	=73	=73	=73	=73	=73	=73	=73	=73
!	!	!	!	!	!	!	!	!	!	!	!	!	!	!LO:N:vis=0	!
4G\	.	16gg\LL	Chri-	4g/	.	4b/	.	4g\	.	4b\	.	4g/	.	1.r	.
.	.	16ff#\	.	.	.	.	.	.	.	.	.	.	.	.	.
.	.	16gg\	.	.	.	.	.	.	.	.	.	.	.	.	.
.	.	16ff#\JJ	.	.	.	.	.	.	.	.	.	.	.	.	.
4G\	.	16gg\LL	.	4g/	.	4b/	.	4g\	.	4b\	.	4g/	.	.	.
.	.	16ff#\	.	.	.	.	.	.	.	.	.	.	.	.	.
.	.	16ee\	.	.	.	.	.	.	.	.	.	.	.	.	.
.	.	16dd\JJ	.	.	.	.	.	.	.	.	.	.	.	.	.
!	!	!LO:LB:g=original	!	!	!	!	!	!	!	!	!	!	!	!	!
4G\	.	16a/LL	.	4g/	.	4b/	.	4g\	.	4b\	.	4g/	.	.	.
.	.	16g/	.	.	.	.	.	.	.	.	.	.	.	.	.
.	.	16f#/	.	.	.	.	.	.	.	.	.	.	.	.	.
.	.	16e/JJ	-sti	.	.	.	.	.	.	.	.	.	.	.	.
=74	=74	=74	=74	=74	=74	=74	=74	=74	=74	=74	=74	=74	=74	=74	=74
4D\	.	16cc\LL	Spon-	4f#/	.	4a/	.	4d/	.	4a\	.	4f#/	.	.	.
.	.	16a\	.	.	.	.	.	.	.	.	.	.	.	.	.
.	.	16b\	.	.	.	.	.	.	.	.	.	.	.	.	.
.	.	16cc\JJ	.	.	.	.	.	.	.	.	.	.	.	.	.
4D\	.	16dd\LL	.	4f#/	.	4a/	.	4r	.	4r	.	4f#/	.	.	.
.	.	16ee\	.	.	.	.	.	.	.	.	.	.	.	.	.
.	.	16ff#\	.	.	.	.	.	.	.	.	.	.	.	.	.
.	.	16gg\JJ	.	.	.	.	.	.	.	.	.	.	.	.	.
4D\	.	4aa\	-sa	4f#/	.	4a/	.	4r	.	4r	.	4f#/	.	.	.
=75	=75	=75	=75	=75	=75	=75	=75	=75	=75	=75	=75	=75	=75	=75	=75
!	!	!LO:TX:a:t=1	!	!	!	!	!	!	!	!	!	!LO:N:vis=0	!	!LO:LB:g=origina	!
4D\	.	2.r	.	2.r	.	2.r	.	4d/	.	4a\	.	1.r	.	16cc\LL	.
.	.	.	.	.	.	.	.	.	.	.	.	.	.	16a\	.
.	.	.	.	.	.	.	.	.	.	.	.	.	.	16b\	.
.	.	.	.	.	.	.	.	.	.	.	.	.	.	16cc\JJ	.
4d\	.	.	.	.	.	.	.	4r	.	4r	.	.	.	16dd\LL	.
.	.	.	.	.	.	.	.	.	.	.	.	.	.	16ee\	.
.	.	.	.	.	.	.	.	.	.	.	.	.	.	16ff#\	.
.	.	.	.	.	.	.	.	.	.	.	.	.	.	16gg\JJ	.
4D\	.	.	.	.	.	.	.	4r	.	4r	.	.	.	4aa\	.
=76	=76	=76	=76	=76	=76	=76	=76	=76	=76	=76	=76	=76	=76	=76	=76
!LO:LB:g=original	!	!	!	!	!	!	!	!LO:LB:g=original	!	!	!	!	!	!LO:N:vis=0	!
4d\	.	16aa\LL	Spon-	8f#/L	.	4cc\	.	4d/	.	4a\	.	.	.	1.r	.
.	.	16gg\	.	.	.	.	.	.	.	.	.	.	.	.	.
.	.	16ff#\	.	8a/	.	.	.	.	.	.	.	.	.	.	.
.	.	16gg\JJ	.	.	.	.	.	.	.	.	.	.	.	.	.
4d\	.	16aa\LL	.	8f#/	.	4cc\	.	4d/	.	4a\	.	.	.	.	.
.	.	16gg\	.	.	.	.	.	.	.	.	.	.	.	.	.
.	.	16ff#\	.	8a/	.	.	.	.	.	.	.	.	.	.	.
.	.	16ee\JJ	.	.	.	.	.	.	.	.	.	.	.	.	.
4d\	.	16dd\LL	.	8f#/	.	4cc\	.	4d/	.	4a\	.	.	.	.	.
.	.	16cc\	.	.	.	.	.	.	.	.	.	.	.	.	.
.	.	16b\	.	8a/J	.	.	.	.	.	.	.	.	.	.	.
.	.	16a\JJ	-sa	.	.	.	.	.	.	.	.	.	.	.	.
=77	=77	=77	=77	=77	=77	=77	=77	=77	=77	=77	=77	=77	=77	=77	=77
*	*	*	*	*tremolo	*	*	*	*	*	*	*	*	*	*	*
4G\	.	8b\L	ac-	8b\L	.	8b\L	.	4g\	.	4b\	.	4b\	.	.	.
.	.	16g\L	-ci-	8b\	.	8gg\	.	.	.	.	.	.	.	.	.
.	.	16b\JJ	-pe	.	.	.	.	.	.	.	.	.	.	.	.
4G\	.	8dd\L	Spon-	8b\	.	8gg\	.	4g\	.	4b\	.	4r	.	.	.
.	.	16b\L	.	8b\	.	8gg\	.	.	.	.	.	.	.	.	.
.	.	16dd\JJ	.	.	.	.	.	.	.	.	.	.	.	.	.
4G\	.	4gg\	-sa	8b\	.	8gg\	.	4g\	.	4b\	.	4r	.	.	.
.	.	.	.	8b\J	.	8gg\J	.	.	.	.	.	.	.	.	.
=78	=78	=78	=78	=78	=78	=78	=78	=78	=78	=78	=78	=78	=78	=78	=78
*	*	*	*	*	*	*tremolo	*	*	*	*	*	*	*	*	*
!	!	!LO:LB:g=original	!	!	!	!	!	!	!	!	!	!	!	!	!
4B\	.	8dd\L	Co-	8b\L	.	8gg\L	.	4g\	.	4b\	.	4b\	.	8b/L	.
.	.	16b\L	.	8b\	.	8gg\	.	.	.	.	.	.	.	16g/L	.
.	.	16dd\JJ	.	.	.	.	.	.	.	.	.	.	.	16b/JJ	.
4B\	.	8gg\L	-ro-	8b\	.	8gg\	.	4g\	.	4b\	.	4r	.	8dd\L	.
.	.	16dd\L	.	8b\	.	8gg\	.	.	.	.	.	.	.	16b\L	.
.	.	16gg\JJ	.	.	.	.	.	.	.	.	.	.	.	16dd\JJ	.
4B\	.	4bb\	-nam	8b\	.	8gg\	.	4g\	.	4b\	.	4r	.	4gg\	.
.	.	.	.	8b\J	.	8gg\J	.	.	.	.	.	.	.	.	.
*	*	*	*	*Xtremolo	*	*Xtremolo	*	*	*	*	*	*	*	*	*
=79	=79	=79	=79	=79	=79	=79	=79	=79	=79	=79	=79	=79	=79	=79	=79
*	*	*	*	*	*	*	*	*	*	*	*	*	*	*tremolo	*
4c\	.	8ee\L	co-	8cc\L	.	8ee\L	.	2.r	.	2.r	.	4cc\	.	8ee\L	.
.	.	8cc\J	.	8cc\	.	8ee\	.	.	.	.	.	.	.	8ee\	.
4C/	.	16ee\LL	-ro-	8ee\	.	8ccc\	.	.	.	.	.	4ee\	.	8ee\	.
.	.	16ff#\	.	.	.	.	.	.	.	.	.	.	.	.	.
.	.	16gg\	.	8ee\	.	8ccc\	.	.	.	.	.	.	.	8ee\	.
.	.	16ff#\JJ	.	.	.	.	.	.	.	.	.	.	.	.	.
4C/	.	16gg\LL	.	8ee\	.	8ccc\	.	.	.	.	.	4r	.	8ee\	.
.	.	16ee\	.	.	.	.	.	.	.	.	.	.	.	.	.
.	.	16dd\	.	8ee\J	.	8ccc\J	.	.	.	.	.	.	.	8ee\J	.
.	.	16cc\JJ	-nam	.	.	.	.	.	.	.	.	.	.	.	.
=80	=80	=80	=80	=80	=80	=80	=80	=80	=80	=80	=80	=80	=80	=80	=80
4BB/	.	8dd\L	co-	8dd\L	.	8bb\L	.	4r	.	4r	.	8dd\L	.	8dd\L	.
.	.	16b\L	.	16b\L	.	16gg\L	.	.	.	.	.	16b\L	.	16gg\L	.
.	.	16a\JJ	.	16a\JJ	.	16ff#\JJ	.	.	.	.	.	16a\JJ	.	16ff#\JJ	.
*	*	*	*	*tremolo	*	*tremolo	*	*	*	*	*	*	*	*	*
4GG/	.	16g\LL	.	8b\L	.	8gg\L	.	4g\	.	4b\	.	4b\	.	8gg\L	.
.	.	16a\	.	.	.	.	.	.	.	.	.	.	.	.	.
.	.	16b\	.	8b\	.	8gg\	.	.	.	.	.	.	.	8gg\	.
.	.	16cc\JJ	.	.	.	.	.	.	.	.	.	.	.	.	.
4G\	.	16dd\LL	.	8b\	.	8gg\	.	4g\	.	4b\	.	4b\	.	8gg\	.
.	.	16ee\	.	.	.	.	.	.	.	.	.	.	.	.	.
.	.	16ff#\	.	8b\J	.	8gg\J	.	.	.	.	.	.	.	8gg\J	.
.	.	16gg\JJ	.	.	.	.	.	.	.	.	.	.	.	.	.
*	*	*	*	*Xtremolo	*	*Xtremolo	*	*	*	*	*	*	*	*Xtremolo	*
=81	=81	=81	=81	=81	=81	=81	=81	=81	=81	=81	=81	=81	=81	=81	=81
!	!	!	!	!LO:LB:g=original	!	!LO:LB:g=original	!	!	!	!	!	!LO:LB:g=original	!	!	!
.	.	.	.	.	.	8qqff#/	.	.	.	.	.	.	.	8qqff#/	.
4C/	.	16ff#\LL	.	16dd\LL	.	8ee\L	.	4a\	.	4cc\	.	16dd\LL	.	8ee\L	.
.	.	16ee\	.	16cc\	.	.	.	.	.	.	.	16cc\	.	.	.
.	.	16dd\	.	16b\	.	16dd\L	.	.	.	.	.	16b\	.	16dd\L	.
.	.	16cc\JJ	.	16a\JJ	.	16cc\JJ	.	.	.	.	.	16a\JJ	.	16cc\JJ	.
4D/	.	4b\	-ro-	8g/L	.	8b/L	.	4g\	.	4b\	.	8g/L	.	8b/L	.
.	.	.	.	8g/	.	8b/	.	.	.	.	.	8g/	.	8b/	.
4D/	.	4a\	-na	8f#/	.	8a/	.	4d/	.	4a\	.	8f#/	.	8a/	.
.	.	.	.	8f#/J	.	8a/J	.	.	.	.	.	8f#/J	.	8a/J	.
=82	=82	=82	=82	=82	=82	=82	=82	=82	=82	=82	=82	=82	=82	=82	=82
*tremolo	*	*	*	*	*	*	*	*	*	*	*	*	*	*	*
!	!	!LO:LB:g=original	!	!	!	!	!	!	!	!LO:LB:g=original	!	!	!	!	!
8BB/L	.	8.gg\L	quam	8b/L	.	(8gg\L	.	8b\L	.	8gg\L	.	8b/L	.	(8gg\L	.
8BB/	.	.	.	8b/J	.	8dd\J)	.	8b\J	.	8dd\J	.	8b/J	.	8dd\J)	.
.	.	16dd\Jk	.	.	.	.	.	.	.	.	.	.	.	.	.
8BB/	.	8r	.	8r	.	8r	.	8r	.	8r	.	8r	.	8r	.
8BB/J	.	8dd\L	ti-	8b`\L	.	8dd`\L	.	8b\L	.	8dd\L	.	8b\L	.	8dd\L	.
*Xtremolo	*	*	*	*	*	*	*	*	*	*	*	*	*	*	*
8BB/L	.	8dd\	.	(8b\	.	(8dd\	.	8b\	.	8dd\	.	8b\	.	8dd\	.
8C/J	.	8ee\J	-bi	8cc\J)	.	8ee\J)	.	8cc\J	.	8ee\J	.	8cc\J	.	8ee\J	.
=83	=83	=83	=83	=83	=83	=83	=83	=83	=83	=83	=83	=83	=83	=83	=83
8.BB/L	.	8.dd\L	ti-	8.b/L	.	8.dd\L	.	8.b\L	.	8.dd\L	.	8.b/L	.	8.dd\L	.
16C/Jk	.	16cc\Jk	.	16a/Jk	.	16cc\Jk	.	16a\Jk	.	16cc\Jk	.	16a/Jk	.	16cc\Jk	.
*tremolo	*	*	*	*	*	*	*	*	*	*	*	*	*	*	*
!	!	!	!	!	!	!	!	!	!	!	!	!	!	!LO:LB:g=original	!
8D\L	.	4b\	.	8g/L	.	8b/L	.	4g\	.	4b\	.	8g/L	.	8b/L	.
8D\	.	.	.	8g/	.	8b/	.	.	.	.	.	8g/	.	8b/	.
8D\	.	4a\	-bi	8f#/	.	8a/	.	4d/	.	4a\	.	8f#/	.	8a/	.
8D\J	.	.	.	8f#/J	.	8a/J	.	.	.	.	.	8f#/J	.	8a/J	.
*Xtremolo	*	*	*	*	*	*	*	*	*	*	*	*	*	*	*
=84	=84	=84	=84	=84	=84	=84	=84	=84	=84	=84	=84	=84	=84	=84	=84
8G\L	.	8.gg\L	quam	8b\L	.	(8gg\L	.	8b\L	.	8gg\L	.	8b\L	.	8gg\L	.
8B\	.	.	.	8b\J	.	8dd\J)	.	8b\J	.	8dd\J	.	8b\J	.	8dd\J	.
.	.	16dd\Jk	.	.	.	.	.	.	.	.	.	.	.	.	.
8B\	.	8r	.	8r	.	8r	.	8r	.	8r	.	8r	.	8r	.
8B\	.	8dd\L	ti-	8b`\L	.	8dd`\L	.	8b\L	.	8dd\L	.	8b\L	.	8dd\L	.
8B\	.	8dd\	.	(8b\	.	(8dd\	.	8b\	.	8dd\	.	8b\	.	8dd\	.
8c\J	.	8ee\J	.	8cc\J)	.	8ee\J)	.	8cc\J	.	8ee\J	.	8cc\J	.	8ee\J	.
=85	=85	=85	=85	=85	=85	=85	=85	=85	=85	=85	=85	=85	=85	=85	=85
!LO:LB:g=original	!	!	!	!	!	!	!	!	!	!	!	!	!	!	!
!LO:TX:a:t=problem:mixed beam	!	!	!	!	!	!	!	!LO:LB:g=original	!	!	!	!	!	!	!
8.B\L	.	8.dd\L	.	8.b/L	.	8.dd\L	.	8.b\L	.	8.dd\L	.	8.b/L	.	8.dd\L	.
16c\K	.	16cc\Jk	.	16a/Jk	.	16cc\Jk	.	16a\Jk	.	16cc\Jk	.	16a/Jk	.	16cc\Jk	.
8d\	.	4b\	.	8g/L	.	8b/L	.	4g\	.	4b\	.	4g/	.	8b/L	.
8d\	.	.	.	8g/	.	8b/	.	.	.	.	.	.	.	8b/	.
8D/	.	4a\	-bi	8f#/	.	8a/	.	4d/	.	4a\	.	4f#/	.	8a/	.
8D/J	.	.	.	8f#/J	.	8a/J	.	.	.	.	.	.	.	8a/J	.
=86	=86	=86	=86	=86	=86	=86	=86	=86	=86	=86	=86	=86	=86	=86	=86
!	!	!	!	!	!	!LO:LB:g=original	!	!	!	!	!	!	!	!	!
4G\	.	8bb\L	Do-	8gg\L	.	8bb\L	.	4g\	.	4b\	.	8gg\L	.	8bb\L	.
.	.	8aa\J	.	8ff#\	.	8aa\	.	.	.	.	.	8ff#\	.	8aa\	.
4G\	.	8gg\L	-mi-	8ee\	.	8gg\	.	4r	.	4r	.	8ee\	.	8gg\	.
.	.	8ff#\J	.	8dd\	.	8ff#\	.	.	.	.	.	8dd\	.	8ff#\	.
4B\	.	8ee\L	-nus	8cc\	.	8ee\	.	4r	.	4r	.	8cc\	.	8ee\	.
.	.	8dd#X\J	.	8b\J	.	8dd#X\J	.	.	.	.	.	8b\J	.	8dd#X\J	.
=87	=87	=87	=87	=87	=87	=87	=87	=87	=87	=87	=87	=87	=87	=87	=87
*tremolo	*	*	*	*	*	*	*	*	*	*	*	*	*	*	*
!	!	!	!	!	!	!	!	!	!	!	!	!LO:LB:g=original	!	!	!
8c\L	.	8ee\L	prae-	8cc\L	.	8ee\L	.	4r	.	4r	.	2.cc\	.	2ee\	.
8c\	.	8ee\J	.	8cc\J	.	8ee\J	.	.	.	.	.	.	.	.	.
*	*	*	*	*tremolo	*	*	*	*	*	*	*	*	*	*	*
8c\	.	16ee\LL	-pa-	16cc\L	.	16ee\LL	.	4r	.	4r	.	.	.	.	.
.	.	16ff#\	.	16cc\	.	16ee\	.	.	.	.	.	.	.	.	.
8c\	.	16gg\	.	16cc\	.	16ee\	.	.	.	.	.	.	.	.	.
.	.	16ff#\JJ	.	16cc\J	.	16ee\JJ	.	.	.	.	.	.	.	.	.
*	*	*	*	*Xtremolo	*	*	*	*	*	*	*	*	*	*	*
!	!	!LO:LB:g=original	!	!	!	!	!	!	!	!	!	!	!	!	!
8c\	.	16gg\LL	-ra-	16cc/LL	.	16ee\LL	.	4a\	.	4cc\	.	.	.	4cc\	.
.	.	16ee\	.	16cc/	.	16ee\	.	.	.	.	.	.	.	.	.
8c\J	.	16dd\	.	16a/	.	16cc\	.	.	.	.	.	.	.	.	.
.	.	16cc\JJ	.	16a/JJ	.	16cc\JJ	.	.	.	.	.	.	.	.	.
*Xtremolo	*	*	*	*	*	*	*	*	*	*	*	*	*	*	*
=88	=88	=88	=88	=88	=88	=88	=88	=88	=88	=88	=88	=88	=88	=88	=88
!LO:TX:a:t=problem:mixed beam	!	!	!	!	!	!	!	!	!	!	!	!	!	!	!
8d\L	.	4b\	.	16g/LL	.	16b\LL	.	4g\	.	4b\	.	2b/	.	8b\L	.
.	.	.	.	16b/	.	16gg\	.	.	.	.	.	.	.	.	.
8d\	.	.	.	16b/	.	16gg\	.	.	.	.	.	.	.	8gg\	.
.	.	.	.	16b/JJ	.	16gg\JJ	.	.	.	.	.	.	.	.	.
8d\	.	4b\	.	16b/LL	.	16gg\LL	.	4g\	.	4b\	.	.	.	8gg\	.
.	.	.	.	16b/	.	16gg\	.	.	.	.	.	.	.	.	.
8d\	.	.	.	16b/	.	16gg\	.	.	.	.	.	.	.	8gg\	.
.	.	.	.	16b/JJ	.	16gg\JJ	.	.	.	.	.	.	.	.	.
8D/	.	4a\	.	16a/LL	.	16ff#\LL	.	4d/	.	4a\	.	4a/	.	8ff#\	.
.	.	.	.	16a/	.	16ff#\	.	.	.	.	.	.	.	.	.
8D/J	.	.	.	16a/	.	16ff#\	.	.	.	.	.	.	.	8ff#\J	.
.	.	.	.	16a/JJ	.	16ff#\JJ	.	.	.	.	.	.	.	.	.
=89	=89	=89	=89	=89	=89	=89	=89	=89	=89	=89	=89	=89	=89	=89	=89
!LO:TX:a:t=problem: bardzo niejasne przejście DaCapo	!	!	!	!	!	!	!	!	!	!	!	!	!	!	!
4G\	.	4g\	-vit	4b/	.	4d/ 4b 4gg	.	4B/	.	4g\	.	4b\	.	4gg\	.
8B\L	.	4r	.	4r	.	4r	.	4r	.	4r	.	4r	.	4r	.
8A\	.	.	.	.	.	.	.	.	.	.	.	.	.	.	.
8G\	.	4r	.	4r	.	4r	.	4r	.	4r	.	4r	.	4r	.
8F#\J	.	.	.	.	.	.	.	.	.	.	.	.	.	.	.
=90||	=90||	=90||	=90||	=90||	=90||	=90||	=90|	=90|	=90||	=90||	=90||	=90||	=90||	=90||	=90||
!LO:TX:a:t=problem:zbedny takt	!	!LO:TX:a:t=problem: zbędny takt	!	!	!	!	!	!	!	!LO:LB:g=original	!	!	!	!LO:LB:g=original	!
!	!	!	!	!LO:TX:a:t=brakuje 1 taktu	!	!	!	!LO:N:vis=00	!	!LO:N:vis=00	!	!	!	!LO:TX:a:t=problem:brak 1 taktu	!
2.ryy	.	2.r	.	2.ryy	.	2.ryy	.	0.r	.	0.r	.	2.r	.	2.r	.
=91	=91	=91	=91	=91	=91	=91	=91	=91	=91	=91	=91	=91	=91	=91	=91
!	!	!LO:PB:g=original	!	!	!	!	!LO:DY:t=po	!	!	!	!	!	!	!	!
!	!	!LO:TX:a:t=problem:2 takty dopisane linijkę niżej	!	!	!	!	!	!	!	!	!	!	!	!	!
4E\	.	4b\	Do-	4g/	.	4b\	p	.	.	.	.	4g/	.	4b/	.
4G\	.	8a/L	.	4g/	.	8a/L	.	.	.	.	.	4g/	.	8a/L	.
.	.	8g/	.	.	.	8g/	.	.	.	.	.	.	.	8g/	.
4E\	.	8f#/	-mi-	4g/	.	8f#/	.	.	.	.	.	4g/	.	8f#/	.
.	.	8e/J	-na	.	.	8e/J	.	.	.	.	.	.	.	8e/J	.
=92	=92	=92	=92	=92	=92	=92	=92	=92	=92	=92	=92	=92	=92	=92	=92
!	!	!	!	!	!	!LO:LB:g=original	!	!	!	!	!	!	!	!	!
4A\	.	2cc\	nos-	2cc\	.	2cc\	.	.	.	.	.	2cc\	.	2cc\	.
4A\	.	.	.	.	.	.	.	.	.	.	.	.	.	.	.
!	!	!LO:TX:a:t=h	!	!	!	!	!	!	!	!	!	!	!	!	!
4G\	.	4b\	-tra	4b\	.	4b\	.	.	.	.	.	4b\	.	4b\	.
=93	=93	=93	=93	=93	=93	=93	=93	=93	=93	=93	=93	=93	=93	=93	=93
4F#\	.	8a\L	Spon-	4a/	.	4a/	.	.	.	.	.	2.a/	.	4a/	.
.	.	8dd#X\J	.	.	.	.	.	.	.	.	.	.	.	.	.
4D#X\	.	8dd#\L	.	4a/	.	4a/	.	.	.	.	.	.	.	4a/	.
.	.	8ff#\J	.	.	.	.	.	.	.	.	.	.	.	.	.
4E\	.	8ff#\L	.	4a/	.	4a/	.	.	.	.	.	.	.	4a/	.
.	.	8a\J	-sa	.	.	.	.	.	.	.	.	.	.	.	.
=94	=94	=94	=94	=94	=94	=94	=94	=94	=94	=94	=94	=94	=94	=94	=94
!	!	!	!	!LO:TX:a:t=problem:mixed beam	!	!LO:TX:a:t=problem:mixed beam	!	!LO:N:vis=00	!	!LO:N:vis=00	!	!	!	!LO:TX:a:t=problem:mixed beam	!
4B\	.	8g/L	Chri-	8g/L	.	8g/L	.	0.r	.	0.r	.	8g/L	.	8g/L	.
.	.	8f#/J	.	8f#/	.	8f#/	.	.	.	.	.	8f#/J	.	8f#/	.
4BB/	.	4e/	.	8e/	.	8e/	.	.	.	.	.	4e/	.	8e/	.
.	.	.	.	8e/	.	8e/	.	.	.	.	.	.	.	8e/	.
8E\L	.	4ee\	-sti	8ee\	.	8ee\	.	.	.	.	.	4r	.	8ee\	.
8E\J	.	.	.	8ee\J	.	8ee\J	.	.	.	.	.	.	.	8ee\J	.
=95	=95	=95	=95	=95	=95	=95	=95	=95	=95	=95	=95	=95	=95	=95	=95
!LO:LB:g=origina	!	!	!	!	!	!	!	!	!	!	!	!	!	!	!
!LO:TX:a:t=problem: brak taktów 95 i 96	!	!LO:TX:a:t=problem: repetycja tt. 9394	!	!	!	!	!	!	!	!	!	!LO:TX:a:t=problem:brakujące 2 takty	!	!	!LO:TXX:a:t=problem repetycja tt.93-94
2.ryy	.	8a\Lyy	Spon-	4a/	.	4a/	.	.	.	.	.	2.r	.	4a/yy	.
.	.	8dd#X\Jyy	.	.	.	.	.	.	.	.	.	.	.	.	.
.	.	8dd#\Lyy	.	4a/	.	4a/	.	.	.	.	.	.	.	4a/yy	.
.	.	8ff#\Jyy	.	.	.	.	.	.	.	.	.	.	.	.	.
.	.	8ff#\Ly	.	4a/	.	4a/	.	.	.	.	.	.	.	4a/yy	.
.	.	8a\Jyy	-sa	.	.	.	.	.	.	.	.	.	.	.	.
=96	=96	=96	=96	=96	=96	=96	=96	=96	=96	=96	=96	=96	=96	=96	=96
!	!	!	!	!LO:TX:a:t=problem:mixed beam	!	!LO:TX:a:t=problem:mixed beam	!	!	!	!	!	!	!	!LO:TX:a:t=problem:mixed beam	!
2.ryy	.	8g/Lyy	Chri-	8g/L	.	8g/L	.	.	.	.	.	2.r	.	8g/Lyy	.
.	.	8f#/Jyy	.	8f#/	.	8f#/	.	.	.	.	.	.	.	8f#/yy	.
.	.	4e/yy	.	8e/	.	8e/	.	.	.	.	.	.	.	8e/yy	.
.	.	.	.	8e/	.	8e/	.	.	.	.	.	.	.	8e/yy	.
.	.	4ee\yy	-sti	8ee\	.	8ee\	.	.	.	.	.	.	.	8ee/yy	.
.	.	.	.	8ee\J	.	8ee\J	.	.	.	.	.	.	.	8ee/Jyy	.
=97	=97	=97	=97	=97	=97	=97	=97	=97	=97	=97	=97	=97	=97	=97	=97
!	!	!	!	!LO:LB:g=original	!	!	!	!	!	!	!	!	!	!	!
8A\L	.	4cc\	Spon-	8cc\L	.	8cc\L	.	.	.	.	.	4cc\	.	4cc\	.
8A\J	.	.	.	8cc\	.	8cc\	.	.	.	.	.	.	.	.	.
*tremolo	*	*	*	*	*	*	*	*	*	*	*	*	*	*	*
8G\L	.	4b\	-sa	8b\	.	8b\	.	.	.	.	.	4b\	.	4b\	.
8G\	.	.	.	8b\	.	8b\	.	.	.	.	.	.	.	.	.
8G\	.	8r	.	8ee\	.	8ee\	.	.	.	.	.	8r	.	4ee\	.
8G\J	.	8ee\	Chri-	8ee\J	.	8ee\J	.	.	.	.	.	8ee\	.	.	.
*Xtremolo	*	*	*	*	*	*	*	*	*	*	*	*	*	*	*
=98	=98	=98	=98	=98	=98	=98	=98	=98	=98	=98	=98	=98	=98	=98	=98
!	!	!	!	!LO:TX:a:t=problem:mixed beam	!	!LO:TX:a:t=problem:mixed beam	!	!LO:N:vis=00	!	!LO:N:vis=00	!	!	!	!	!
8F#\L	.	4a\	.	8a/L	.	8a/L	.	0.r	.	0.r	.	4a/	.	4a/	.
8D#X\	.	.	.	8a/	.	8a/	.	.	.	.	.	.	.	.	.
8E\	.	4g\	-sti	8g/	.	8g/	.	.	.	.	.	4g/	.	4g/	.
8E\	.	.	.	8g/	.	8g/	.	.	.	.	.	.	.	.	.
8G\	.	8r	.	8ee/	.	8ee\	.	.	.	.	.	8r	.	4ee\	.
8G\J	.	8ee\	{Spon-	8ee\J	.	8ee\J	.	.	.	.	.	8ee\	.	.	.
=99	=99	=99	=99	=99	=99	=99	=99	=99	=99	=99	=99	=99	=99	=99	=99
!	!	!LO:LB:g=original	!	!	!	!	!	!	!	!	!	!LO:LB:g=original	!	!	!
8A\L	.	4cc\	.	4cc\	.	4cc\	.	.	.	.	.	4cc\	.	4cc\	.
8A\J	.	.	.	.	.	.	.	.	.	.	.	.	.	.	.
*tremolo	*	*	*	*	*	*	*	*	*	*	*	*	*	*	*
8G\L	.	4b\	-sa}	4b\	.	4b\	.	.	.	.	.	4b\	.	4b\	.
8G\	.	.	.	.	.	.	.	.	.	.	.	.	.	.	.
8G\	.	8r	.	8r	.	8r	.	.	.	.	.	8r	.	8r	.
8G\J	.	8ee\	{Chri-	8ee\	.	8ee\	.	.	.	.	.	8ee\	.	8ee\	.
*Xtremolo	*	*	*	*	*	*	*	*	*	*	*	*	*	*	*
=100	=100	=100	=100	=100	=100	=100	=100	=100	=100	=100	=100	=100	=100	=100	=100
!	!	!	!	!	!	!LO:LB:g=original	!	!	!	!	!	!	!	!	!
8F#\L	.	4a\	.	8a/L	.	8a/L	.	.	.	.	.	4a/	.	4a/	.
!LO:TX:a:t=SIC:s=d#	!	!	!	!	!	!	!	!	!	!	!	!	!	!	!
8D\	.	.	.	8a/	.	8a/	.	.	.	.	.	.	.	.	.
8E\	.	4g\	-sti}	8g/	.	8g/	.	.	.	.	.	4g/	.	4g/	.
8E\J	.	.	.	8g/	.	8g/	.	.	.	.	.	.	.	.	.
8BB/L	.	4b\	{Spon-	8b/	.	8b/	.	.	.	.	.	4r	.	4b/	.
8BB/J	.	.	.	8b/J	.	8b/J	.	.	.	.	.	.	.	.	.
=101	=101	=101	=101	=101	=101	=101	=101	=101	=101	=101	=101	=101	=101	=101	=101
!	!	!	!	!	!	!	!	!	!	!	!	!	!	!LO:LB:g=original	!
!	!	!	!	!LO:TX:a:t=problem:mixed beam	!	!LO:TX:a:t=problem:mixed beam	!	!	!	!	!	!LO:TX:a:t=problem:mixed beam	!	!LO:TX:a:t=problem:mixed beam	!
8E\L	.	8ee\L	-sa}	8ee\L	.	8ee\L	.	.	.	.	.	8ee\L	.	8ee\L	.
8E\	.	8ff#\J	.	8ff#\	.	8ff#\	.	.	.	.	.	8ff#\	.	8ff#\	.
8E\	.	8gg\L	{Chri-	8gg\	.	8gg\	.	.	.	.	.	8gg\	.	8gg\	.
8F#\	.	8a#X\J	-sti}	8a#X/	.	8a#X/	.	.	.	.	.	8a#X/	.	8a#X/	.
8F#\	.	8a#\L	{Spon-	8a#/	.	8a#/	.	.	.	.	.	8a#/	.	8a#/	.
8F#\J	.	8a#\J	-sa}	8a#/J	.	8a#/J	.	.	.	.	.	8a#/J	.	8a#/J	.
=102	=102	=102	=102	=102	=102	=102	=102	=102	=102	=102	=102	=102	=102	=102	=102
!	!	!	!	!	!	!	!	!LO:N:vis=00	!	!LO:N:vis=00	!	!	!	!	!
4BB/	.	4b\	{Chri-	4b\	.	4b\	.	0.r	.	0.r	.	4b\	.	4b\	.
4D#X\	.	4aa\	.	4aa\	.	4aa\	.	.	.	.	.	4aa\	.	4aa\	.
4E\	.	4gg\	-sti}	4gg\	.	4gg\	.	.	.	.	.	4gg\	.	4gg\	.
=103	=103	=103	=103	=103	=103	=103	=103	=103	=103	=103	=103	=103	=103	=103	=103
4A\	.	8aa\L	{Spon-	8aa\L	.	8aa\L	.	.	.	.	.	8aa\L	.	8aa\L	.
.	.	16gg\L	.	16gg\L	.	16gg\L	.	.	.	.	.	16gg\L	.	16gg\L	.
.	.	16ff#\JJ	.	16ff#\JJ	.	16ff#\JJ	.	.	.	.	.	16ff#\JJ	.	16ff#\JJ	.
4B\	.	4ee\	.	8ee\L	.	8ee\L	.	.	.	.	.	8ee\L	.	8ee\L	.
.	.	.	.	8ee\	.	8ee\	.	.	.	.	.	8ee\	.	8ee\	.
4BB/	.	4dd#X\	-sa}	8dd#X\	.	8dd#X\	.	.	.	.	.	8dd#X\	.	8dd#X\	.
.	.	.	.	8dd#\J	.	8dd#\J	.	.	.	.	.	8dd#\J	.	8dd#\J	.
=104	=104	=104	=104	=104	=104	=104	=104	=104	=104	=104	=104	=104	=104	=104	=104
!	!	!LO:LB:g=original	!	!	!	!	!	!	!	!	!	!	!	!	!
4B\	.	4b\	{Chri-	4b\	.	4b\	.	.	.	.	.	4r	.	4r	.
4D#X\	.	4aa\	.	4aa\	.	4aa\	.	.	.	.	.	4aa\	.	4aa\	.
4E\	.	4gg\	-sti}	4gg\	.	4gg\	.	.	.	.	.	4gg\	.	4gg\	.
=105	=105	=105	=105	=105	=105	=105	=105	=105	=105	=105	=105	=105	=105	=105	=105
!LO:LB:g=original	!	!	!	!LO:LB:g=original	!	!	!	!	!	!	!	!	!	!	!
.	.	.	.	8qqbb/	.	8qqbb/	.	.	.	.	.	.	.	.	.
4A\	.	16bb\LL	{Spon-	8aa\L	.	8aa\L	.	.	.	.	.	8aa\L	.	16bb\LL	.
.	.	16aa\	.	.	.	.	.	.	.	.	.	.	.	16aa\	.
.	.	16gg\	.	16gg\L	.	16gg\L	.	.	.	.	.	16gg\L	.	16gg\	.
.	.	16ff#\JJ	.	16ff#\JJ	.	16ff#\JJ	.	.	.	.	.	16ff#\JJ	.	16ff#\JJ	.
4B\	.	4ee\	.	8ee\L	.	8ee\L	.	.	.	.	.	8ee\L	.	8ee\L	.
.	.	.	.	8ee\	.	8ee\	.	.	.	.	.	8ee\	.	8ee\	.
4BB/	.	4dd#X\	-sa}	8dd#X\	.	8dd#X\	.	.	.	.	.	8dd#X\	.	8dd#X\	.
.	.	.	.	8dd#\J	.	8dd#\J	.	.	.	.	.	8dd#\J	.	8dd#\J	.
=106	=106	=106	=106	=106	=106	=106	=106	=106	=106	=106	=106	=106	=106	=106	=106
!	!	!LO:TX:a:t=problem: niejednoznaczne przyporządkowanie tekstu	!	!	!	!	!	!LO:N:vis=00	!	!LO:N:vis=00	!	!LO:LB:g=original	!	!	!
4E\	.	4ee\	ac-	4ee\	.	4ee\	.	0.r	.	0.r	.	4ee\	.	4ee\	.
4C/	.	4ee\	-ci-	4ee\	.	4ee\	.	.	.	.	.	4ee\	.	4ee\	.
4BB/	.	4ee\	-pe	4ee\	.	4ee\	.	.	.	.	.	4ee\	.	4ee\	.
=107	=107	=107	=107	=107	=107	=107	=107	=107	=107	=107	=107	=107	=107	=107	=107
4AA#X/	.	4ee\	co-	4ee\	.	4ee\	.	.	.	.	.	4ee\	.	4ee\	.
4BB/	.	2ff#\	-ro-	4r	.	4r	.	.	.	.	.	4r	.	4r	.
4BB/	.	.	.	4r	.	4r	.	.	.	.	.	4r	.	4r	.
=108	=108	=108	=108	=108	=108	=108	=108	=108	=108	=108	=108	=108	=108	=108	=108
!	!	!	!	!	!	!LO:PB:g=original	!	!	!	!	!	!	!	!LO:LB:g=original	!
4E\	.	4ee\	-nam	4ee\	.	4ee\	.	.	.	.	.	4ee\	.	4ee\	.
4C/	.	4ee\	{ac-	4ee\	.	4ee\	.	.	.	.	.	4ee\	.	4ee\	.
4BB/	.	4ee\	-ci-	4ee\	.	4ee\	.	.	.	.	.	4ee\	.	4ee\	.
=109	=109	=109	=109	=109	=109	=109	=109	=109	=109	=109	=109	=109	=109	=109	=109
4AA#X/	.	4ee\	-pe	4ee\	.	4ee\	.	.	.	.	.	4ee\	.	4ee\	.
4BB;</	.	2ff#\	co-	4r;	.	4r;	.	.	.	.	.	4r;	.	4r;	.
4BB/	.	.	.	4r	.	4r	.	.	.	.	.	4r	.	4r	.
=110	=110	=110	=110	=110	=110	=110	=110	=110	=110	=110	=110	=110	=110	=110	=110
!	!	!LO:LB:g=original	!	!LO:TX:a:t=Da Capo	!	!LO:TX:a:t=Da Capo	!	!LO:TX:a:t=Da Capo	!	!LO:TX:a:t=Da Capo	!	!LO:TX:a:t=Da Capo	!	!LO:TX:a:t=Da Capo	!
!	!	!LO:TX:a:t=Da Capo	!	!	!	!	!	!	!	!	!	!	!	!	!
4E\	.	2ee\	-nam}.	4ee\	.	4ee\	.	2.r	.	2.r	.	4ee\	.	2.r	.
8D/L	.	.	.	4r	.	4r	.	.	.	.	.	4r	.	.	.
8C/	.	.	.	.	.	.	.	.	.	.	.	.	.	.	.
8BB/	.	4r	.	4r	.	4r	.	.	.	.	.	4r	.	.	.
8AA/J	.	.	.	.	.	.	.	.	.	.	.	.	.	.	.
=111||	=111||	=111||	=111||	=111||	=111||	=111||	=111||	=111||	=111||	=111||	=111||	=111||	=111||	=111||	=111||
!	!	!LO:TX:a:t=problem:takty dopisane na poprzedniej stronie	!	!LO:TX:a:t=problem: takty nieistniejące	!	!LO:TX:a:t=problem: takty nieistniejące	!	!LO:TX:a:t=problem: takty nieistniejące	!	!LO:TX:a:t=problem: takty nieistniejące	!	!LO:TX:a:t=problem:takty nieistniejące	!	!LO:TX:a:t=problem: takty nieistniejące	!
4G\	.	4g\	prae-	2.ryy	.	2.ryy	.	2.ryy	.	2.ryy	.	2.ryy	.	2.ryy	.
4r	.	4gg\	-pa-	.	.	.	.	.	.	.	.	.	.	.	.
4r	.	4gg\	-ra-	.	.	.	.	.	.	.	.	.	.	.	.
=112	=112	=112	=112	=112	=112	=112	=112	=112	=112	=112	=112	=112	=112	=112	=112
2.r;	.	2.gg\	-vit	2.ryy	.	2.ryy	.	2.ryy	.	2.ryy	.	2.ryy	.	2.ryy	.
==	==	==	==	==	==	==	==	==	==	==	==	==	==	==	==
*-	*-	*-	*-	*-	*-	*-	*-	*-	*-	*-	*-	*-	*-	*-	*-
!!!system-decoration: [(g1)][(g2)][(g3)][g4]{g5}
!!!RDF**kern: <= below
!!!ENC: Anna Matuszewska
!!!END: 2020-06-03
!!!YEC: Copyright 2022 Narodowy Instytut Fryderyka Chopina (https://polishscores.org)
!!!YEM: License CC-BY-4.0 (https://creativecommons.org/licenses/by/4.0)
